!!!!SEGMENT: pl-cz--iii-743--001-011_zebrowski-marcin-jozef--magnificat-gloria-patri.krn
!!!cenid: 17xx:2342
!!!COM: Żebrowski, Marcin Józef
!!!COM-rismID: pe30020322
!!!CDT: 1702-1770/06/29
!!!CNT: Polish
!!!OPR: Magnificat
!!!OTL: Gloria patri
!!!OMV: 011
!!!PDT:
!!!AGN:
!!!SMS-siglum: PL-CZ
!!!SMS-shelfmark: III-743
!!!SMS-shelfwork: 001-011 M
!!!SMS-variant:
!!!SMS-altvar:
!!!NIFC-rismSourceID: 300033495
!!!NIFC-rismChildID: 300033495
!!!NIFC-islandoraID: pl-cz:25228
!!!URL-pdf-islandora: https://repozytorium.nifc.pl/islandora/object/pl-cz%3A25228/datastream/PDF/view
!!!URL-scan: https://polish.musicsources.pl/pl/lokalizacje/galeria/rekopisy/1473 @EN{Scan on Polish Music Sources Website} @PL{Skany w portalu Dziedzictwo Muzyki Polskiej w otwartym dostępie}
!!!ONB-nifc: UWAGA: części Magnificatu: 1. Magnificat, 2. Et exultavit, 3. Quia respexit, 4. Quia fecit, 5. Et misericordia, 6. Fecit potentiam, 7. Deposuit potentes, 8. Esurientes implevit bonis, 9. Suscepit Israel, 10. Sicut locutus, 11. Gloria patri (razem z Sicut erat i Amen)
!!!AIN: 1 alto 1 bass 2 cor 1 organ 1 soprn 1 tenor 1 viola 2 violn
!!!key: G
**kern	**dynam	**fba	**kern	**dynam	**kern	**dynam	**kern	**dynam	**kern	**text	**kern	**text	**kern	**text	**kern	**text	**kern	**kern
*part10	*part10	*part10	*part9	*part9	*part8	*part8	*part7	*part7	*part6	*part6	*part5	*part5	*part4	*part4	*part3	*part3	*part2	*part1
*staff10	*	*	*staff9	*	*staff8	*	*staff7	*	*staff6	*staff6	*staff5	*staff5	*staff4	*staff4	*staff3	*staff3	*staff2	*staff1
*I"Baſso.pro Organo.	*	*	*I"Viola Oblig.	*	*I"Violino Secondo.	*	*I"Violino Primo	*	*I"Baſso	*	*I"Tenore	*	*I"Alto	*	*I"Canto.	*	*I"Cornuo Secondo.	*I"Cornuo Primo
*I'org	*	*	*I'vla	*	*I'vl 2	*	*I'vl 1	*	*I'B	*	*I'T	*	*I'A	*	*I'C	*	*I'cor2	*I'cor1
*Iorgan	*	*	*Iviola	*	*Ivioln	*	*Ivioln	*	*Ibass	*	*Itenor	*	*Ialto	*	*Isoprn	*	*Icor	*Icor
*ICklav	*	*	*ICstr	*	*ICstr	*	*ICstr	*	*ICvox	*	*ICvox	*	*ICvox	*	*ICvox	*	*ICbras	*ICbras
*clefF4	*	*	*clefC3	*	*clefG2	*	*clefG2	*	*clefF4	*	*clefC4	*	*clefC3	*	*clefC1	*	*clefG2	*clefG2
*	*	*	*	*	*	*	*	*	*	*	*	*	*	*	*	*	*ITrd3c5	*ITrd3c5
*k[f#]	*	*	*k[f#]	*	*k[f#]	*	*k[f#]	*	*k[f#]	*	*k[f#]	*	*k[f#]	*	*k[f#]	*	*k[f#]	*k[f#]
*G:	*	*	*G:	*	*G:	*	*G:	*	*G:	*	*G:	*	*G:	*	*G:	*	*G:	*G:
*M4/4	*	*	*M4/4	*	*M4/4	*	*M4/4	*	*M4/4	*	*M4/4	*	*M4/4	*	*M4/4	*	*M4/4	*M4/4
*2\right	*	*	*2\right	*	*2\right	*	*2\right	*	*2\right	*	*2\right	*	*2\right	*	*2\right	*	*2\right	*2\right
=1	=1	=1	=1	=1	=1	=1	=1	=1	=1	=1	=1	=1	=1	=1	=1	=1	=1	=1
!LO:TX:b:i:t=Allegro solo.	!	!	!LO:TX:b:i:t=Allegro.	!	!LO:TX:b:i:t=allo.	!	!LO:TX:b:i:t=Allegro.	!	!	!	!LO:TX:a:i:t=11.	!	!	!	!	!	!LO:TX:b:i:t=Gloria allegro	!LO:TX:b:i:t=Gloria allegro.
!	!	!	!	!	!	!	!	!	!	!	!	!	!	!	!LO:TX:t=P:problem=key C2	!	!	!
4G\	.	.	4b\	.	8.G/L 8.d 8.b 8.gg	.	8.G/L 8.d 8.b 8.gg	.	1r	.	1r	.	1r	.	1r	.	4b\	4dd\
.	.	.	.	.	32ff#/LL	.	32ff#/LL	.	.	.	.	.	.	.	.	.	.	.
.	.	.	.	.	32ee/JJJ	.	32ee/JJJ	.	.	.	.	.	.	.	.	.	.	.
4F#\	.	6	8a\L	.	16dd\LL	.	16dd\LL	.	.	.	.	.	.	.	.	.	4r	4r
.	.	.	.	.	16cc\	.	16cc\	.	.	.	.	.	.	.	.	.	.	.
.	.	.	8dd\J	.	16b\	.	16b\	.	.	.	.	.	.	.	.	.	.	.
.	.	.	.	.	16a\JJ	.	16a\JJ	.	.	.	.	.	.	.	.	.	.	.
.	.	.	.	.	8qqa/	.	8qqa/	.	.	.	.	.	.	.	.	.	.	.
8.G\L	.	.	8.g\L	.	8.g/L	.	8.g/L	.	.	.	.	.	.	.	.	.	4r	4r
32F#\LL	.	.	32f#\LL	.	32f#/LL	.	32f#/LL	.	.	.	.	.	.	.	.	.	.	.
32E\JJJ	.	.	32e\JJJ	.	32e/JJJ	.	32e/JJJ	.	.	.	.	.	.	.	.	.	.	.
!LO:TX:b:i:t=uniſsoni	!	!	!	!	!	!	!	!	!	!	!	!	!	!	!	!	!	!
16D/LL	.	.	16d\LL	.	16d/LL	.	16d/LL	.	.	.	.	.	.	.	.	.	16dd\LL	16dd\LL
16C/	.	.	16c\	.	16c/	.	16c/	.	.	.	.	.	.	.	.	.	16cc\	16cc\
16BB/	.	.	16B\	.	16B/	.	16B/	.	.	.	.	.	.	.	.	.	16b\	16b\
16AA/JJ	.	.	16A\JJ	.	16A/JJ	.	16A/JJ	.	.	.	.	.	.	.	.	.	16a\JJ	16a\JJ
=2	=2	=2	=2	=2	=2	=2	=2	=2	=2	=2	=2	=2	=2	=2	=2	=2	=2	=2
!LO:TX:t=P:problem=mixed beam	!	!	!	!	!	!	!	!	!	!	!	!	!	!	!	!	!	!
8GG/L	.	.	8G|/L	.	8G|/L	.	8G|/L	.	1r	.	1r	.	1r	.	1r	.	8g|/L	8g\L
8d|\	.	.	8d|/	.	8d|/	.	8d|/	.	.	.	.	.	.	.	.	.	8d|/	8dd|\
8B|\	.	.	8B|/	.	8B|/	.	8B|/	.	.	.	.	.	.	.	.	.	8B|/	8b|\
8G|\J	.	.	8G|/J	.	8G|/J	.	8G|/J	.	.	.	.	.	.	.	.	.	8G|/J	8g|\J
!	!	!	!	!	!	!	!	!	!	!	!	!	!	!	!	!	!	!LO:TX:t=P:problem=mixed beam
!	!	!	!LO:TX:t=P:problem=mixed beam	!	!LO:TX:t=P:problem=mixed beam	!	!LO:TX:t=P:problem=mixed beam	!	!	!	!	!	!	!	!	!	!	!
8d\L	.	.	8d\L	.	8dd\L	.	8dd\L	.	.	.	.	.	.	.	.	.	8d|/L	8dd|\L
8D\J	.	.	8D/J	.	8d/J	.	8d/J	.	.	.	.	.	.	.	.	.	8D|/J	8d|/J
4r	.	.	4r	.	16r	.	16r	.	.	.	.	.	.	.	.	.	4r	4r
.	.	.	.	.	(32d/LLL	.	(32d/LLL	.	.	.	.	.	.	.	.	.	.	.
.	.	.	.	.	32e/	.	32e/	.	.	.	.	.	.	.	.	.	.	.
.	.	.	.	.	32f#/	.	32f#/	.	.	.	.	.	.	.	.	.	.	.
.	.	.	.	.	32g/	.	32g/	.	.	.	.	.	.	.	.	.	.	.
.	.	.	.	.	32a\	.	32a\	.	.	.	.	.	.	.	.	.	.	.
.	.	.	.	.	32b/JJJ)	.	32b/JJJ)	.	.	.	.	.	.	.	.	.	.	.
!	!	!	!	!	!	!	!LO:LB:g=original	!	!	!	!	!	!	!	!	!	!	!
=3	=3	=3	=3	=3	=3	=3	=3	=3	=3	=3	=3	=3	=3	=3	=3	=3	=3	=3
!	!	!	!	!	!LO:TX:t=P:problem=mixed beam	!	!LO:TX:t=P:problem=mixed beam	!	!	!	!	!	!	!	!	!	!	!
!	!	!	!	!	!	!	!LO:TX:t=P:problem=takt skreślony, fragment poprawiony na następnej stronie	!	!	!	!	!	!	!	!	!	!	!
8D\L	.	7	16d\LL	.	16cc\LL	.	16cc\LL	.	1r	.	1r	.	1r	.	1r	.	1a	1cc
.	.	.	16f#\	.	16d/	.	16d/	.	.	.	.	.	.	.	.	.	.	.
8D\	.	.	16d\	.	16d/	.	16d/	.	.	.	.	.	.	.	.	.	.	.
.	.	.	16f#\JJ	.	16d/JJ	.	16d/JJ	.	.	.	.	.	.	.	.	.	.	.
8D\	.	.	16d\LL	.	16f#/LL	.	16f#/LL	.	.	.	.	.	.	.	.	.	.	.
.	.	.	16f#\	.	16d/	.	16d/	.	.	.	.	.	.	.	.	.	.	.
8D\J	.	.	16d\	.	16a/	.	16a/	.	.	.	.	.	.	.	.	.	.	.
*	*	*	*	*	*custos:cc	*	*	*	*	*	*	*	*	*	*	*	*	*
.	.	.	16f#\JJ	.	16f#/JJ	.	16f#/JJ	.	.	.	.	.	.	.	.	.	.	.
!	!	!	!	!	!LO:LB:g=original	!	!	!	!	!	!	!	!	!	!	!	!	!
8D\L	.	7	16d\LL	.	16cc\LL	.	16cc\LL	.	.	.	.	.	.	.	.	.	.	.
.	.	.	16f#\	.	16a\	.	16a\	.	.	.	.	.	.	.	.	.	.	.
8D\	.	.	16d\	.	16ff#\	.	16ff#\	.	.	.	.	.	.	.	.	.	.	.
.	.	.	16f#\JJ	.	16cc\JJ	.	16cc\JJ	.	.	.	.	.	.	.	.	.	.	.
8D\	.	.	16d\LL	.	16aa|\LL	.	16aa|\LL	.	.	.	.	.	.	.	.	.	.	.
.	.	.	16f#\	.	(16cc\	.	(16cc\	.	.	.	.	.	.	.	.	.	.	.
8D\J	.	.	16d\	.	16b\	.	16b\	.	.	.	.	.	.	.	.	.	.	.
.	.	.	16f#\JJ	.	16a\JJ)	.	16a\JJ)	.	.	.	.	.	.	.	.	.	.	.
=4	=4	=4	=4	=4	=4	=4	=4	=4	=4	=4	=4	=4	=4	=4	=4	=4	=4	=4
8D\L	.	6 4	16d\LL	.	16b/LL	.	16b/LL	.	1r	.	1r	.	1r	.	1r	.	1g	1b
.	.	.	16g\	.	16d/	.	16d/	.	.	.	.	.	.	.	.	.	.	.
8D\	.	.	16d\	.	16d/	.	16d/	.	.	.	.	.	.	.	.	.	.	.
.	.	.	16g\JJ	.	16d/JJ	.	16d/JJ	.	.	.	.	.	.	.	.	.	.	.
8D\	.	.	16d\LL	.	16g/LL	.	16g/LL	.	.	.	.	.	.	.	.	.	.	.
.	.	.	16g\	.	16d/	.	16d/	.	.	.	.	.	.	.	.	.	.	.
8D\J	.	.	16d\	.	16b/	.	16b/	.	.	.	.	.	.	.	.	.	.	.
.	.	.	16g\JJ	.	16g/JJ	.	16g/JJ	.	.	.	.	.	.	.	.	.	.	.
8D\L	.	6 4	16d\LL	.	16dd\LL	.	16dd\LL	.	.	.	.	.	.	.	.	.	.	.
.	.	.	16g\	.	16b\	.	16b\	.	.	.	.	.	.	.	.	.	.	.
8D\	.	.	16d\	.	16gg\	.	16gg\	.	.	.	.	.	.	.	.	.	.	.
.	.	.	16g\JJ	.	16dd\JJ	.	16dd\JJ	.	.	.	.	.	.	.	.	.	.	.
8D\	.	.	16d\LL	.	16bb|\LL	.	16bb|\LL	.	.	.	.	.	.	.	.	.	.	.
.	.	.	16g\	.	(16dd\	.	(16dd\	.	.	.	.	.	.	.	.	.	.	.
8D\J	.	.	16d\	.	16cc\	.	16cc\	.	.	.	.	.	.	.	.	.	.	.
!	!	!	!	!	!	!	!LO:TX:a:i:t=vi	!	!	!	!	!	!	!	!	!	!	!
.	.	.	16g\JJ	.	16b\JJ)	.	16b\JJ)	.	.	.	.	.	.	.	.	.	.	.
!	!	!	!LO:LB:g=original	!	!	!	!LO:TX:a:i:t=de	!	!	!	!	!	!	!	!	!	!	!
=5	=5	=5	=5	=5	=5	=5	=5	=5	=5	=5	=5	=5	=5	=5	=5	=5	=5	=5
8D\L	.	8 6	16D/LL	.	16d/ 16dd 16bb	.	16d/ 16dd 16bb	.	1r	.	1r	.	1r	.	1r	.	1b	1dd
.	.	.	16G/	.	16d/LL	.	16d/LL	.	.	.	.	.	.	.	.	.	.	.
8D\	.	.	16D/	.	16d/	.	16d/	.	.	.	.	.	.	.	.	.	.	.
.	.	.	16G/JJ	.	16d/JJ	.	16d/JJ	.	.	.	.	.	.	.	.	.	.	.
8D\	.	.	16D/LL	.	16g/LL	.	16g/LL	.	.	.	.	.	.	.	.	.	.	.
.	.	.	16G/	.	16d/	.	16d/	.	.	.	.	.	.	.	.	.	.	.
8D\J	.	.	16D/	.	16b/	.	16b/	.	.	.	.	.	.	.	.	.	.	.
.	.	.	16G/JJ	.	16g/JJ	.	16g/JJ	.	.	.	.	.	.	.	.	.	.	.
8D\L	.	.	16D/LL	.	16dd\LL	.	16dd\LL	.	.	.	.	.	.	.	.	.	.	.
.	.	.	16G/	.	16b\	.	16b\	.	.	.	.	.	.	.	.	.	.	.
8D\	.	.	16D/	.	16gg\	.	16gg\	.	.	.	.	.	.	.	.	.	.	.
.	.	.	16G/JJ	.	16b\JJ	.	16b\JJ	.	.	.	.	.	.	.	.	.	.	.
8D\	.	.	16D/LL	.	16bb|\LL	.	16bb\LL	.	.	.	.	.	.	.	.	.	.	.
.	.	.	16G/	.	(16dd\	.	(16dd\	.	.	.	.	.	.	.	.	.	.	.
8D\J	.	.	16D/	.	16cc\	.	16cc\	.	.	.	.	.	.	.	.	.	.	.
.	.	.	16G/JJ	.	16b\JJ)	.	16b\JJ)	.	.	.	.	.	.	.	.	.	.	.
!LO:LB:g=original	!	!	!	!	!	!	!	!	!	!	!	!	!	!	!	!	!	!
=6	=6	=6	=6	=6	=6	=6	=6	=6	=6	=6	=6	=6	=6	=6	=6	=6	=6	=6
8D\L	.	7 5	16D/LL	.	16d/ 16a 16aa	.	16d/ 16a 16aa	.	1r	.	1r	.	1r	.	1r	.	1a	1cc
.	.	.	16F#/	.	16d/LL	.	16d/LL	.	.	.	.	.	.	.	.	.	.	.
8D\	.	.	16D/	.	16d/	.	16d/	.	.	.	.	.	.	.	.	.	.	.
.	.	.	16F#/JJ	.	16d/JJ	.	16d/JJ	.	.	.	.	.	.	.	.	.	.	.
8D\	.	.	16D/LL	.	16f#/LL	.	16f#/LL	.	.	.	.	.	.	.	.	.	.	.
.	.	.	16F#/	.	16d/	.	16d/	.	.	.	.	.	.	.	.	.	.	.
8D\J	.	.	16D/	.	16a/	.	16a/	.	.	.	.	.	.	.	.	.	.	.
.	.	.	16F#/JJ	.	16f#/JJ	.	16f#/JJ	.	.	.	.	.	.	.	.	.	.	.
!	!	!	!	!	!LO:LB:g=original	!	!	!	!	!	!	!	!	!	!	!	!	!
8D\L	.	.	16D/LL	.	16cc\LL	.	16cc\LL	.	.	.	.	.	.	.	.	.	.	.
.	.	.	16F#/	.	16a\	.	16a\	.	.	.	.	.	.	.	.	.	.	.
8D\	.	.	16D/	.	16ff#\	.	16ff#\	.	.	.	.	.	.	.	.	.	.	.
.	.	.	16F#/JJ	.	16cc\JJ	.	16cc\JJ	.	.	.	.	.	.	.	.	.	.	.
8D\	.	.	16D/LL	.	16aa|\LL	.	16aa|\LL	.	.	.	.	.	.	.	.	.	.	.
.	.	.	16F#/	.	(16cc\	.	(16cc\	.	.	.	.	.	.	.	.	.	.	.
8D\J	.	.	16D/	.	16b\	.	16b\	.	.	.	.	.	.	.	.	.	.	.
.	.	.	16F#/JJ	.	16a\JJ)	.	16a\JJ)	.	.	.	.	.	.	.	.	.	.	.
!	!	!	!	!	!	!	!LO:LB:g=original	!	!	!	!	!	!	!	!	!	!	!
=7	=7	=7	=7	=7	=7	=7	=7	=7	=7	=7	=7	=7	=7	=7	=7	=7	=7	=7
4G\	.	.	4G/	.	16b\LL	.	16b\LL	.	1r	.	1r	.	1r	.	1r	.	4g\	4b\
.	.	.	.	.	16gg\	.	16gg\	.	.	.	.	.	.	.	.	.	.	.
.	.	.	.	.	16ff#\	.	16ff#\	.	.	.	.	.	.	.	.	.	.	.
.	.	.	.	.	16ee\JJ	.	16ee\JJ	.	.	.	.	.	.	.	.	.	.	.
8r	.	.	8r	.	16dd\LL	.	16dd\LL	.	.	.	.	.	.	.	.	.	8r	8r
.	.	.	.	.	16cc\	.	16cc\	.	.	.	.	.	.	.	.	.	.	.
8D\	.	.	8f#\	.	16b\	.	16b\	.	.	.	.	.	.	.	.	.	8a\	8cc\
.	.	.	.	.	16a\JJ	.	16a\JJ	.	.	.	.	.	.	.	.	.	.	.
8E/L	.	.	8g\L	.	8.g/L	.	8.g/L	.	.	.	.	.	.	.	.	.	4g\	4b\
8BB/	.	6	8d\	.	.	.	.	.	.	.	.	.	.	.	.	.	.	.
.	.	.	.	.	16a/Jk	.	16a/Jk	.	.	.	.	.	.	.	.	.	.	.
!	!	!	!	!	!	!	!	!	!	!	!	!	!	!	!	!	!	!LO:TX:a:i:t=t.
8C/	.	6	8e\	.	4aT/	.	4aT/	.	.	.	.	.	.	.	.	.	8r	4a\
*	*	*	*	*	*	*	*	*	*	*	*	*	*	*	*	*	*custos:cc	*
8D/J	.	.	8f#\J	.	.	.	.	.	.	.	.	.	.	.	.	.	8d/	.
!	!	!	!	!	!	!	!	!	!	!	!	!	!	!	!	!	!LO:LB:g=original	!
=8	=8	=8	=8	=8	=8	=8	=8	=8	=8	=8	=8	=8	=8	=8	=8	=8	=8	=8
8GG/L	.	.	8g\L	.	(16b/LL	.	(16b/LL	.	1r	.	1r	.	1r	.	1r	.	4g\	8.b\L
.	.	.	.	.	16dd/)	.	16dd/)	.	.	.	.	.	.	.	.	.	.	.
8BB/	.	6	8d\	.	16g|/	.	16g|/	.	.	.	.	.	.	.	.	.	.	.
.	.	.	.	.	16a|/JJ	.	16a|/JJ	.	.	.	.	.	.	.	.	.	.	16cc\Jk
!	!	!	!	!	!	!	!	!	!	!	!	!	!	!	!	!	!	!LO:TX:a:i:t=t.
.	.	.	.	.	.	.	.	.	.	.	.	.	.	.	.	.	.	8qqb/
8C/	.	6	8e\	.	4aT/	.	4aT/	.	.	.	.	.	.	.	.	.	8r	4a\
8D/J	.	.	8f#\J	.	.	.	.	.	.	.	.	.	.	.	.	.	8d/	.
!LO:TX:t=P:problem=mixed beam	!	!	!	!	!	!	!	!	!	!	!	!	!	!	!	!	!	!
8G\L	.	.	8g\L	.	(16b/LL	.	(16b/LL	.	.	.	.	.	.	.	.	.	4g\	4b\
.	.	.	.	.	16dd/)	.	16dd/)	.	.	.	.	.	.	.	.	.	.	.
8BB/	.	.	8d\	.	16g|/	.	16g|/	.	.	.	.	.	.	.	.	.	.	.
.	.	.	.	.	16a|/JJ	.	16a|/JJ	.	.	.	.	.	.	.	.	.	.	.
!	!	!	!	!	!	!	!	!	!	!	!	!	!	!	!	!	!	!LO:TX:a:i:t=t.
8C/	.	.	8e\	.	4aT/	.	4aT/	.	.	.	.	.	.	.	.	.	8r	4a\
8D/J	.	.	8f#\J	.	.	.	.	.	.	.	.	.	.	.	.	.	8d/	.
=9	=9	=9	=9	=9	=9	=9	=9	=9	=9	=9	=9	=9	=9	=9	=9	=9	=9	=9
4GG/	.	.	4g\	.	8.G/L 8.d 8.b 8.ggT	.	8.G/L 8.d 8.b 8.gg	.	1r	.	1r	.	1r	.	1r	.	4B/	4g\
.	.	.	.	.	32ff#/LL	.	32ff#/LL	.	.	.	.	.	.	.	.	.	.	.
.	.	.	.	.	32ee/JJJ	.	32ee/JJJ	.	.	.	.	.	.	.	.	.	.	.
4r	.	.	4r	.	16dd/LL	.	16dd/LL	.	.	.	.	.	.	.	.	.	4r	4r
.	.	.	.	.	16cc/	.	16cc/	.	.	.	.	.	.	.	.	.	.	.
.	.	.	.	.	16b/	.	16b/	.	.	.	.	.	.	.	.	.	.	.
.	.	.	.	.	16a/JJ	.	16a/JJ	.	.	.	.	.	.	.	.	.	.	.
.	.	.	.	.	8qqa/	.	8qqa/	.	.	.	.	.	.	.	.	.	.	.
8.G\L	.	.	8.g\L	.	8.g/L	.	8.g/L	.	.	.	.	.	.	.	.	.	4r	4r
32F#\LL	.	.	32f#\LL	.	32f#/LL	.	32f#/LL	.	.	.	.	.	.	.	.	.	.	.
32E\JJJ	.	.	32e\JJJ	.	32e/JJJ	.	32e/JJJ	.	.	.	.	.	.	.	.	.	.	.
16D/LL	.	.	16d/LL	.	16d/LL	.	16d/LL	.	.	.	.	.	.	.	.	.	16dd\LL	16dd\LL
16C/	.	.	16c/	.	16c/	.	16c/	.	.	.	.	.	.	.	.	.	16cc\	16cc\
16BB/	.	.	16B/	.	16B/	.	16B/	.	.	.	.	.	.	.	.	.	16b\	16b\
*	*	*	*	*	*	*	*custos:gg	*	*	*	*	*	*	*	*	*	*	*
16AA/JJ	.	.	16A/JJ	.	16A/JJ	.	16A/JJ	.	.	.	.	.	.	.	.	.	16a\JJ	16a\JJ
!	!	!	!	!	!LO:LB:g=original	!	!	!	!	!	!	!	!	!	!	!	!	!
=10	=10	=10	=10	=10	=10	=10	=10	=10	=10	=10	=10	=10	=10	=10	=10	=10	=10	=10
8GG/L	.	.	8G/L	.	8G/L 8d 8b 8gg	.	8G/L 8d 8b 8gg	.	1r	.	1r	.	1r	.	1r	.	8.g\L	8.b\L
8BB/	.	6	8d/	.	8gg|/J	.	8gg|/J	.	.	.	.	.	.	.	.	.	.	.
.	.	.	.	.	.	.	.	.	.	.	.	.	.	.	.	.	16b\Jk	16dd\Jk
.	.	.	.	.	.	.	.	.	.	.	.	.	.	.	.	.	8qqb/	8qqdd/
8D/	.	7 4	8A/	.	8d/L 8a 8gg	.	8d/L 8a 8gg	.	.	.	.	.	.	.	.	.	4a\	4cc\
8DD/J	.	3	8d/J	.	8ff#|/J	.	8ff#|/J	.	.	.	.	.	.	.	.	.	.	.
!LO:TX:t=P:problem=mixed beam	!	!	!	!	!	!	!	!	!	!	!	!	!	!	!	!	!	!
8GG/L	.	.	8B/L	.	8G/L 8d 8b 8gg	.	8G/L 8d 8b 8gg	.	.	.	.	.	.	.	.	.	8.g\L	8.b\L
8B\	.	.	8d/	.	8gg|/J	.	8gg|/J	.	.	.	.	.	.	.	.	.	.	.
.	.	.	.	.	.	.	.	.	.	.	.	.	.	.	.	.	16b\Jk	16dd\Jk
*	*	*	*	*	*	*	*	*	*	*	*	*	*	*	*	*	*	*custos:ee
.	.	.	.	.	.	.	.	.	.	.	.	.	.	.	.	.	8qqb/	8qqdd/
8d\	.	7 4	8A/	.	8d/L 8a 8gg	.	8d/L 8a 8gg	.	.	.	.	.	.	.	.	.	4a\	4cc\
8D\J	.	3	8d/J	.	8ff#|/J	.	8ff#t/J	.	.	.	.	.	.	.	.	.	.	.
!LO:LB:g=original	!	!	!	!	!	!	!	!	!	!	!	!	!	!	!	!	!	!LO:LB:g=original
=11	=11	=11	=11	=11	=11	=11	=11	=11	=11	=11	=11	=11	=11	=11	=11	=11	=11	=11
!LO:TX:t=P:problem=mixed beam	!	!	!	!	!	!	!	!	!	!	!	!	!	!	!	!	!	!
8G\L	.	.	8B/L	.	8G/L 8d 8b 8gg	.	8G/L 8d 8b 8gg	.	1r	.	1r	.	1r	.	1r	.	8.g\L	8.b\L
8BB/	.	.	8d/	.	8gg|/J	.	8gg/J	.	.	.	.	.	.	.	.	.	.	.
.	.	.	.	.	.	.	.	.	.	.	.	.	.	.	.	.	16b\Jk	16dd\K
!	!	!	!	!	!	!	!	!	!	!	!	!	!	!	!	!	!LO:TX:t=P:problem=mixed beam	!
8D/	.	.	8A/	.	8d/L 8a 8gg	.	8d/L 8a 8gg	.	.	.	.	.	.	.	.	.	8a\L	8cc\
8DD/J	.	7 4	8d/J	.	8ff#|/J	.	8ff#/J	.	.	.	.	.	.	.	.	.	8d/J	8a\J
4GG/	.	3	4d\	.	4G/ 4d 4b 4gg	.	4G/ 4d 4b 4gg	.	.	.	.	.	.	.	.	.	4B/	4g\
!	!	!	!	!	!LO:TX:a:i:t=adagio	!	!	!	!	!	!	!	!	!	!	!	!LO:TX:b:i:t=adagio	!
4r	.	.	4r	.	4r	.	4r	.	.	.	.	.	.	.	.	.	4r	4r
=12	=12	=12	=12	=12	=12	=12	=12	=12	=12	=12	=12	=12	=12	=12	=12	=12	=12	=12
!LO:TX:b:i:t=adagio tutti\nGloria	!	!	!LO:TX:b:i:t=Adagio.	!	!	!	!LO:TX:b:i:t=adagio.	!	!LO:TX:a:i:t=adagio	!	!LO:TX:a:i:t=adagio.	!	!LO:TX:a:i:t=Adagio.	!	!LO:TX:a:i:t=Adagio.	!	!	!LO:TX:b:i:t=adagio.
2G\	.	.	2r	.	2r	.	2r	.	4.G\	Glo-	4.B\	Glo-	4.d\	Glo-	4.g/	Glo-	2r	2r
.	.	.	.	.	.	.	.	.	8G\	-ri-	8B\	-ri-	8d\	-ri-	8g/	-ri-	.	.
8.G\L	.	.	8r	.	8r	.	8r	.	4G\	-a	4B\	-a	4d\	-a	4g/	-a	8r	8r
.	.	.	16.g\LL	.	16.b/LL	.	16.dd\LL	.	.	.	.	.	.	.	.	.	16.B/LL	16.d/LL
32F#\LL	.	.	.	.	.	.	.	.	.	.	.	.	.	.	.	.	.	.
32E\JJJ	.	.	32g\JJk	.	32b/JJk	.	32dd\JJk	.	.	.	.	.	.	.	.	.	32B/JJk	32d/JJk
16D/LL	.	6 4	(16g'\LL	.	(16b'/LL	.	(16dd'\LL	.	4r	.	4r	.	4r	.	4r	.	16B/LL	16d/LL
16C/	.	.	16g'\	.	16b'/	.	16dd'\	.	.	.	.	.	.	.	.	.	16B/	16d/
16BB/	.	.	16g'\	.	16b'/	.	16dd'\	.	.	.	.	.	.	.	.	.	16B/	16d/
16AA/JJ	.	.	16g'\JJ)	.	16b'/JJ)	.	16dd'\JJ)	.	.	.	.	.	.	.	.	.	16B/JJ	16d/JJ
!	!	!	!LO:LB:g=original	!	!	!	!	!	!	!	!	!	!	!	!	!	!	!
=13	=13	=13	=13	=13	=13	=13	=13	=13	=13	=13	=13	=13	=13	=13	=13	=13	=13	=13
4GG/	.	.	4g\	.	4b/	.	4dd\	.	4.G\	glo-	4d\	Glo-	4.g\	Glo-	4.b\	Glo-	4B/	4d/
4r	.	.	4r	.	4r	.	4r	.	.	.	8ryy	.	.	.	.	.	4r	4r
.	.	.	.	.	.	.	.	.	8G\	-ri-	8d\	-ri-	8g\	-ri-	8b\	-ri-	.	.
!	!	!	!	!	!	!	!	!	!	!	!	!	!	!	!	!	!LO:LB:g=original	!
8.G\L	.	.	2r	.	2r	.	2r	.	4G\	-a	4d\	-a	4g\	-a	4b\	-a	8r	8r
.	.	.	.	.	.	.	.	.	.	.	.	.	.	.	.	.	16.B/LL	16.d/LL
32F#\LL	.	.	.	.	.	.	.	.	.	.	.	.	.	.	.	.	.	.
32E\JJJ	.	.	.	.	.	.	.	.	.	.	.	.	.	.	.	.	32B/JJk	32d/JJk
16D/LL	.	6 4	.	.	.	.	.	.	4r	.	4r	.	4r	.	4r	.	16B/LL	16d/LL
16C/	.	.	.	.	.	.	.	.	.	.	.	.	.	.	.	.	16B/	16d/
16BB/	.	.	.	.	.	.	.	.	.	.	.	.	.	.	.	.	16B/	16d/
16AA/JJ	.	.	.	.	.	.	.	.	.	.	.	.	.	.	.	.	16B/JJ	16d/JJ
=14	=14	=14	=14	=14	=14	=14	=14	=14	=14	=14	=14	=14	=14	=14	=14	=14	=14	=14
4GG/	.	.	2r	.	4b/	.	4dd\	.	1r	.	2r	.	4b\	glo-	4dd\	glo-	4B/	4d/
4r	.	.	.	.	8a/L	.	8cc\L	.	.	.	.	.	8a\	-ri-	8cc\	-ri-	4r	4r
.	.	.	.	.	8g/J	.	8b\J	.	.	.	.	.	8g\	-a	8b\	-a	.	.
*clefC4	*	*	*	*	*	*	*	*	*	*	*	*	*	*	*	*	*	*
.	.	.	.	.	8qqg/	.	8qqb/	.	.	.	.	.	8qqg/	.	8qqb/	.	.	.
!LO:TX:b:i:t=solo.	!	!	!	!	!	!	!	!	!	!	!	!	!	!	!	!	!	!
4d\	.	.	4d\	.	4.f#/	.	4.a/	.	.	.	4d\	Glo-	4.f#\	Pa-	4.a/	Pa-	2r	2r
8c\L	.	4 2	8c/L	.	.	.	.	.	.	.	8c\	-ri-	.	.	.	.	.	.
8B\J	.	6	8B/J	.	8g/	.	8b/	.	.	.	8B\	-a	8g\	-tri	8b\	-tri	.	.
!	!	!	!	!	!LO:LB:g=original	!	!LO:LB:g=original	!	!	!	!	!	!	!	!	!	!	!
=15	=15	=15	=15	=15	=15	=15	=15	=15	=15	=15	=15	=15	=15	=15	=15	=15	=15	=15
!LO:TX:b:i:t=Volti subito	!	!	!	!	!LO:TX:b:i:t=a	!	!	!	!	!	!	!	!	!	!	!	!LO:TX:a:i:t=1.	!LO:TX:a:i:t=1.
.	.	.	.	.	.	.	.	.	.	.	8qqB/	.	.	.	.	.	.	.
4.A\	.	.	4.A/	.	4a/	.	4cc\	.	1r	.	4.A\	Pa-	4a\	Glo-	4cc\	glo-	1r	1r
.	.	.	.	.	8g/L	.	8b\L	.	.	.	.	.	8g\	-ri-	8b\	-ri-	.	.
*custos:c	*	*	*	*	*	*	*	*	*	*	*	*	*	*	*	*	*	*
8B\	.	7	8B/	.	8f#/J	.	8a\J	.	.	.	8B\	-tri	8f#\	-a	8a/	-a	.	.
.	.	.	.	.	8qqf#/	.	8qqa/	.	.	.	.	.	8qqf#/	.	8qqa/	.	.	.
!LO:PB:g=original	!	!	!	!	!	!	!	!	!	!	!	!	!	!	!	!	!	!
4c\	.	.	4c/	.	4.e/	.	4.g/	.	.	.	4c\	Glo-	4.e\	pa-	4.g/	Pa-	.	.
8B\L	.	4 2	8B/L	.	.	.	.	.	.	.	8B\	-ri-	.	.	.	.	.	.
8A\J	.	6	8A/J	.	8f#/	.	8a/	.	.	.	8A\	-a	8f#\	-tri	8a/	-tri	.	.
!	!	!	!	!	!	!	!	!	!	!	!LO:LB:g=original	!	!	!	!LO:LB:g=original	!	!	!
=16	=16	=16	=16	=16	=16	=16	=16	=16	=16	=16	=16	=16	=16	=16	=16	=16	=16	=16
4G/	.	.	4G/	.	8g/L	.	(8b\L	.	2r	.	4G/	Fi-	8g\	glo-	8b\	glo-	8g\L	8b\L
.	.	.	.	.	8b/J	.	8dd\J)	.	.	.	.	.	16a\	-ri-	16cc\	-ri-	8b\J	8dd\J
.	.	.	.	.	.	.	.	.	.	.	.	.	16b\	-a	16dd\	-a	.	.
.	.	.	.	.	8qqb/	.	8qqdd/	.	.	.	.	.	8qqdd/	.	8qqdd/	.	8qqb/	8qqdd/
8.c\L	.	8 6	8.c/L	.	8.aT/L	.	8.cc\L	.	.	.	8.c\	.	8.a\	fi-	8.cc\	fi-	8.a\L	8.cc\L
16c#X\Jk	.	7 5	16c#X/Jk	.	16g/Jk	.	16b\Jk	.	.	.	16c#X\	-li-	16g\	-li-	16b\	-li-	16g\Jk	16b\Jk
.	.	.	.	.	.	.	.	.	.	.	.	.	.	.	.	.	8qqg/	8qqb/
!	!	!	!	!	!	!	!	!	!	!	!	!	!LO:LB:g=original	!	!	!	!	!
4d\	.	.	4d\	.	4f#/	.	4a\	.	4r	.	4d\	-o	4f#\	-o	4a\	-o	4d/	4a\
*clefF4	*	*	*	*	*	*	*	*	*	*	*	*	*	*	*	*	*	*
!LO:TX:b:i:t=Tutti	!	!	!	!	!	!	!	!	!	!	!	!	!	!	!	!	!	!
4F#X\	.	6 5	4r	.	4r	.	4r	.	(4F#\	glo-	4d\	glo-	4a\	glo-	4cc\	glo-	4a\	4cc\
=17	=17	=17	=17	=17	=17	=17	=17	=17	=17	=17	=17	=17	=17	=17	=17	=17	=17	=17
!LO:TX:t=P:problem=mixed beam	!	!	!	!	!	!	!	!	!	!	!	!	!	!	!	!	!	!
8G\L	.	.	1r	.	1r	.	1r	.	4.G\)	.	4.d\	.	4.g\	.	4.b\	.	4.g\	4.b\
8GG/	.	.	.	.	.	.	.	.	.	.	.	.	.	.	.	.	.	.
8BB/	.	.	.	.	.	.	.	.	.	.	.	.	.	.	.	.	.	.
8GG/J	.	.	.	.	.	.	.	.	8G\	-ri-	8d\	-ri-	8g\	-ri-	8b\	-ri-	8g\	8b\
8D\L	.	.	.	.	.	.	.	.	4D\	-a	4d\	-a	4f#\	-a	4a\	-a	4d/	4a\
8A\	.	.	.	.	.	.	.	.	.	.	.	.	.	.	.	.	.	.
8F#\	.	6 5	.	.	.	.	.	.	8.d\	ſpi-	8.f#\	ſpi-	8.a\	ſpi-	8.cc\	ſpi-	4r	4r
8D\J	.	.	.	.	.	.	.	.	.	.	.	.	.	.	.	.	.	.
.	.	.	.	.	.	.	.	.	16d\	-ri-	16f#\	-ri-	16a\	-ri-	16cc\	-ri-	.	.
!	!	!	!	!	!	!	!	!	!LO:LB:g=original	!	!	!	!	!	!	!	!	!
=18	=18	=18	=18	=18	=18	=18	=18	=18	=18	=18	=18	=18	=18	=18	=18	=18	=18	=18
!LO:TX:t=P:problem=mixed beam	!	!	!	!	!	!	!	!	!	!	!	!	!	!	!	!	!	!
8G\L	.	.	2r	.	2r	.	2r	.	8G\	-tu-	8d\	-tu-	8g\	-tu-	8b\	-tu-	2r	2r
8F#\	.	6 5	.	.	.	.	.	.	8F#\	-i	8d\	-i	8a\	-i	8cc\	-i	.	.
!	!	!	!	!	!	!	!	!	!LO:TX:t=P:problem=mixed beam	!	!	!	!	!	!	!	!	!
8G\	.	.	.	.	.	.	.	.	(8G\L	ſan-	4dT\	ſan-	4gT\	ſan-	4bt\	ſan-	.	.
8GG/J	.	.	.	.	.	.	.	.	8GG/J)	.	.	.	.	.	.	.	.	.
8D\L	.	.	8f#\L	.	4r	.	4r	.	4D/	-cto:	4d\	-cto.	4f#\	-cto.	4a\	-cto.	4r	4r
8E\	.	.	8g\	.	.	.	.	.	.	.	.	.	.	.	.	.	.	.
!LO:TX:b:i:t=Solo.	!	!	!	!	!	!	!	!	!	!	!	!	!	!	!	!	!	!
8F#\	.	6 5	8d\	.	[4aa\	.	4ccc\	.	4r	.	4r	.	4r	.	4r	.	4a\	4cc\
8D\J	.	.	8f#\J	.	.	.	.	.	.	.	.	.	.	.	.	.	.	.
!	!	!	!	!	!	!	!	!	!	!	!	!	!	!	!	!	!	!LO:LB:g=original
=19	=19	=19	=19	=19	=19	=19	=19	=19	=19	=19	=19	=19	=19	=19	=19	=19	=19	=19
.	.	.	.	.	.	.	.	.	.	.	.	.	.	.	.	.	8qqa/	8qqcc/
8G\L	.	3 9	8d\L	.	8aa\L]	.	4.bb\	.	1r	.	1r	.	1r	.	1r	.	4.g\	4.b\
8A\	.	.	8c\	.	8dd\J	.	.	.	.	.	.	.	.	.	.	.	.	.
8B\	.	.	8d\	.	4gg\	.	.	.	.	.	.	.	.	.	.	.	.	.
8G\J	.	6	8d\J	.	.	.	8bb\	.	.	.	.	.	.	.	.	.	8g\	8b\
[2D\	.	6:6 8:7:5:4	[2d\	.	8ff#\	.	8aa\L	.	.	.	.	.	.	.	.	.	4f#\	4a\
.	.	.	.	.	4a/	.	8cc\J	.	.	.	.	.	.	.	.	.	.	.
.	.	.	.	.	.	.	8qqcc/	.	.	.	.	.	.	.	.	.	.	.
.	.	.	.	.	.	.	4b/	.	.	.	.	.	.	.	.	.	4r	4r
.	.	.	.	.	[>8g/	.	.	.	.	.	.	.	.	.	.	.	.	.
=20	=20	=20	=20	=20	=20	=20	=20	=20	=20	=20	=20	=20	=20	=20	=20	=20	=20	=20
!	!	!	!	!	!	!	!	!	!	!	!	!	!	!	!	!	!LO:TX:a:i:t=1.	!LO:TX:a:i:t=1.
2D\]	.	5:7 4:3	2d\]	.	8g/L]	.	4.a/	.	1r	.	1r	.	1r	.	1r	.	1r	1r
.	.	.	.	.	16f#/L	.	.	.	.	.	.	.	.	.	.	.	.	.
.	.	.	.	.	16e/JJ	.	.	.	.	.	.	.	.	.	.	.	.	.
.	.	.	.	.	8d/L	.	.	.	.	.	.	.	.	.	.	.	.	.
.	.	.	.	.	16a/L	.	8cc/	.	.	.	.	.	.	.	.	.	.	.
.	.	.	.	.	16f#/JJ	.	.	.	.	.	.	.	.	.	.	.	.	.
!	!	!	!	!	!LO:PB:g=original	!	!	!	!	!	!	!	!	!	!	!	!	!
!	!	!	!	!	!LO:TUP:b	!	!LO:TUP:b	!	!	!	!	!	!	!	!	!	!	!
8G\L	.	.	8d\L	.	(24g/LL	.	24b/LL	.	.	.	.	.	.	.	.	.	.	.
.	.	.	.	.	24f#/	.	24a\	.	.	.	.	.	.	.	.	.	.	.
.	.	.	.	.	24g/JJ)	.	24b/JJ	.	.	.	.	.	.	.	.	.	.	.
!	!	!	!	!	!	!	!LO:TUP:b	!	!	!	!	!	!	!	!	!	!	!
8c\	.	6	8e\	.	16a/LL	.	24cc/LL	.	.	.	.	.	.	.	.	.	.	.
.	.	.	.	.	.	.	24b/	.	.	.	.	.	.	.	.	.	.	.
.	.	.	.	.	16e/JJ	.	.	.	.	.	.	.	.	.	.	.	.	.
.	.	.	.	.	.	.	24a\JJ	.	.	.	.	.	.	.	.	.	.	.
.	.	.	.	.	8qqg/	.	.	.	.	.	.	.	.	.	.	.	.	.
8d\	.	.	8d\	.	4f#t/	.	4aT/	.	.	.	.	.	.	.	.	.	.	.
8D\J	.	.	8d\J	.	.	.	.	.	.	.	.	.	.	.	.	.	.	.
!LO:LB:g=original	!	!	!	!	!	!	!LO:LB:g=original	!	!	!	!	!	!	!	!	!	!LO:LB:g=original	!
=21	=21	=21	=21	=21	=21	=21	=21	=21	=21	=21	=21	=21	=21	=21	=21	=21	=21	=21
*M3/4	*	*	*M3/4	*	*M3/4	*	*M3/4	*	*M3/4	*	*M3/4	*	*M3/4	*	*M3/4	*	*M3/4	*M3/4
*	*	*	*	*	*	*	*	*	*2\right	*	*2\right	*	*2\right	*	*2\right	*	*	*
!LO:TX:b:i:t=Allegro tutti.	!	!	!LO:TX:b:i:t=Allegro	!	!LO:TX:a:i:t=Allo.	!	!LO:TX:a:i:t=Allo.	!	!LO:TX:a:i:t=alllo.	!	!LO:TX:a:i:t=Allo.	!	!LO:TX:a:i:t=Allo	!	!LO:TX:a:i:t=Allo	!	!LO:TX:b:i:t=Allegro.	!LO:TX:b:i:t=Allegro.
4GG|/	.	.	4d\	.	8G/L 8d 8b 8gg	.	8G/L 8d 8b 8gg	.	4GG/	ſi-	2d\	ſi-	2g\	ſi-	2b\	ſi-	4g\	4b\
.	.	.	.	.	16ff#/L	.	16ff#/L	.	.	.	.	.	.	.	.	.	.	.
.	.	.	.	.	16ee/JJ	.	16ee/JJ	.	.	.	.	.	.	.	.	.	.	.
4BB|/	.	6	4d\	.	8dd/L	.	8dd/L	.	4BB/	.	.	.	.	.	.	.	8dd\L	8dd\L
.	.	.	.	.	8cc/	.	8cc/	.	.	.	.	.	.	.	.	.	8cc\	8cc\
4D|/	.	.	4d\	.	8b/	.	8b/	.	4D/	-cut	4d\	-cut	4f#\	-cut	4a\	-cut	8b\	8b\
.	.	.	.	.	8a/J	.	8a/J	.	.	.	.	.	.	.	.	.	8a\J	8a\J
=22	=22	=22	=22	=22	=22	=22	=22	=22	=22	=22	=22	=22	=22	=22	=22	=22	=22	=22
8G\L	.	.	2d\	.	4g|/	.	4g|/	.	2G\	e-	2d\	e-	2g\	e-	2b\	e-	4g|\	4g|\
16F#\L	.	.	.	.	.	.	.	.	.	.	.	.	.	.	.	.	.	.
16E\JJ	.	.	.	.	.	.	.	.	.	.	.	.	.	.	.	.	.	.
8D/L	.	6 4	.	.	4b|/	.	4b|/	.	.	.	.	.	.	.	.	.	4b|\	4b|\
8C/	.	.	.	.	.	.	.	.	.	.	.	.	.	.	.	.	.	.
8BB/	.	.	4d\	.	4dd|\	.	4dd|/	.	4G\	-rat	4d\	-rat	4g\	-rat	4b\	-rat	4dd|\	4dd|\
8AA/J	.	.	.	.	.	.	.	.	.	.	.	.	.	.	.	.	.	.
!	!	!	!	!	!	!	!	!	!	!	!LO:LB:g=original	!	!	!	!	!	!	!
=23	=23	=23	=23	=23	=23	=23	=23	=23	=23	=23	=23	=23	=23	=23	=23	=23	=23	=23
4GG|/	.	.	4d\	.	8G/L 8d 8b 8gg	.	8G/L 8d 8b 8gg	.	4GG/	in	2d\	in	2g\	in	2b\	in	4g\	4b\
.	.	.	.	.	16ff#/L	.	16ff#/L	.	.	.	.	.	.	.	.	.	.	.
.	.	.	.	.	16ee/JJ	.	16ee/JJ	.	.	.	.	.	.	.	.	.	.	.
4BB|/	.	6	4d\	.	8dd/L	.	8dd\L	.	4BB/	.	.	.	.	.	.	.	8dd\L	8dd|\L
.	.	.	.	.	8cc/	.	8cc\	.	.	.	.	.	.	.	.	.	8cc\	8cc|\
4D|/	.	.	4d\	.	8b/	.	8b\	.	4D/	prin-	4d\	prin-	4f#\	prin-	4a\	prin-	8b\	8b|\
.	.	.	.	.	8a/J	.	8a\J	.	.	.	.	.	.	.	.	.	8a\J	8a|\J
!	!	!	!LO:LB:g=original	!	!	!	!	!	!	!	!	!	!	!	!LO:LB:g=original	!	!	!
=24	=24	=24	=24	=24	=24	=24	=24	=24	=24	=24	=24	=24	=24	=24	=24	=24	=24	=24
8G\L	.	.	2d\	.	4g|/	.	4g|/	.	4.G\	-ci-	4.d\	-ci-	4.g\	-ci-	4.b\	-ci-	4g|\	4g|\
16F#\L	.	.	.	.	.	.	.	.	.	.	.	.	.	.	.	.	.	.
16E\JJ	.	.	.	.	.	.	.	.	.	.	.	.	.	.	.	.	.	.
8D/L	.	6 4	.	.	4b|/	.	4b|/	.	.	.	.	.	.	.	.	.	4b|\	4b|\
8C/	.	.	.	.	.	.	.	.	8G\	-pi-	8d\	-pi-	8g\	-pi-	8b\	-pi-	.	.
8BB/	.	.	4d\	.	4dd|/	.	4dd|/	.	4G\	-o	4d\	-o	4g\	-o	4b\	-o	4dd|\	4dd|\
8AA/J	.	.	.	.	.	.	.	.	.	.	.	.	.	.	.	.	.	.
!	!	!	!	!	!	!	!	!	!	!	!	!	!LO:LB:g=original	!	!	!	!	!
=25	=25	=25	=25	=25	=25	=25	=25	=25	=25	=25	=25	=25	=25	=25	=25	=25	=25	=25
!LO:TX:t=P:problem=mixed beam	!	!	!	!	!	!	!	!	!	!	!	!	!	!	!	!	!	!
8GG/L	.	.	4d\	.	4G/ 4d 4b 4gg	.	4G/ 4d 4b 4gg	.	4G\	et	4B\	et	4g\	et	4dd\	et	4g\	4b\
8G\	.	.	.	.	.	.	.	.	.	.	.	.	.	.	.	.	.	.
8F#\	.	.	4r	.	4r	.	4r	.	4G\	nunc	4B\	nunc	4g\	nunc	4dd\	nunc	4r	4r
8G\	.	.	.	.	.	.	.	.	.	.	.	.	.	.	.	.	.	.
8E\	.	6	4r	.	4r	.	4r	.	4E\	et	4c\	et	4g\	et	4ee\	et	4r	4r
8C\J	.	.	.	.	.	.	.	.	.	.	.	.	.	.	.	.	.	.
!	!	!	!	!	!LO:LB:g=original	!	!	!	!LO:LB:g=original	!	!	!	!	!	!	!	!	!
=26	=26	=26	=26	=26	=26	=26	=26	=26	=26	=26	=26	=26	=26	=26	=26	=26	=26	=26
!LO:TX:t=P:problem=mixed beam	!	!	!	!	!	!	!	!	!	!	!	!	!	!	!	!	!LO:TX:a:i:t=3.	!LO:TX:a:i:t=3.
*	*	*	*	*	*	*	*	*	*	*	*	*	*	*ij	*	*	*	*
8FFn/L	.	.	2.r	.	2.r	.	2.r	.	4Fn\	ſem-	4A\	ſem-	4fn\	et	4cc\	ſem-	2.r	2.r
8Fn\	.	.	.	.	.	.	.	.	.	.	.	.	.	.	.	.	.	.
8E\	.	.	.	.	.	.	.	.	4F\	-per	4A\	-per	4f\	nunc	4cc\	-per	.	.
8F\	.	.	.	.	.	.	.	.	.	.	.	.	.	.	.	.	.	.
8D\	.	6 n	.	.	.	.	.	.	4D\	et	4B\	et	4f\	et	4dd\	et	.	.
8BB\J	.	.	.	.	.	.	.	.	.	.	.	.	.	.	.	.	.	.
*	*	*	*	*	*	*	*	*	*	*	*	*	*	*Xij	*	*	*	*
=27	=27	=27	=27	=27	=27	=27	=27	=27	=27	=27	=27	=27	=27	=27	=27	=27	=27	=27
!LO:TX:t=P:problem=mixed beam	!	!	!	!	!	!	!	!	!	!	!	!	!	!	!	!	!	!
8E\L	.	6 4	2.r	.	2.r	.	2.r	.	(4E\	ſem-	(2A/	ſem-	2.e\	ſem-	(4b\	ſem-	2.r	2.r
8E\	.	.	.	.	.	.	.	.	.	.	.	.	.	.	.	.	.	.
8E\	.	.	.	.	.	.	.	.	2EE/)	.	.	.	.	.	2aT\)	.	.	.
8E\	.	.	.	.	.	.	.	.	.	.	.	.	.	.	.	.	.	.
8EE/	.	5 #	.	.	.	.	.	.	.	.	4G#X/)	.	.	.	.	.	.	.
8EE/J	.	.	.	.	.	.	.	.	.	.	.	.	.	.	.	.	.	.
!LO:LB:g=original	!	!	!	!	!	!	!	!	!	!	!	!	!	!	!	!	!	!
=28	=28	=28	=28	=28	=28	=28	=28	=28	=28	=28	=28	=28	=28	=28	=28	=28	=28	=28
!LO:TX:t=P:problem=mixed beam	!	!	!	!	!	!	!	!	!	!	!	!	!	!	!	!	!	!
8AA/L	.	.	4r	.	2.r	.	2.r	.	2AA/	-per	2A\	-per	2e\	-per	2a\	-per	2.r	2.r
16A\L	.	.	.	.	.	.	.	.	.	.	.	.	.	.	.	.	.	.
16B\JJ	.	.	.	.	.	.	.	.	.	.	.	.	.	.	.	.	.	.
8A\L	.	.	8r	.	.	.	.	.	.	.	.	.	.	.	.	.	.	.
8G\	.	.	16a\LL	.	.	.	.	.	.	.	.	.	.	.	.	.	.	.
.	.	.	16b\JJ	.	.	.	.	.	.	.	.	.	.	.	.	.	.	.
8F#X\	.	.	8a\L	.	.	.	.	.	4r	.	4r	.	4r	.	4r	.	.	.
8E\J	.	.	8g\J	.	.	.	.	.	.	.	.	.	.	.	.	.	.	.
=29	=29	=29	=29	=29	=29	=29	=29	=29	=29	=29	=29	=29	=29	=29	=29	=29	=29	=29
!	!	!	!	!	!	!	!LO:TX:t=P:problem=mixed beam	!	!	!	!	!	!	!	!	!	!	!
8D\L	.	7	8f#\L	.	16a/LL	.	16cc\LL	.	2d\	et	2f#\	et	2a\	et	2cc\	et	4a\	4cc\
.	.	.	.	.	16d/	.	16d/	.	.	.	.	.	.	.	.	.	.	.
8D\	.	.	8f#\	.	16d/	.	16d/	.	.	.	.	.	.	.	.	.	.	.
.	.	.	.	.	16d/JJ	.	16d/JJ	.	.	.	.	.	.	.	.	.	.	.
8D\	.	.	8f#\	.	16d/LL	.	16d/LL	.	.	.	.	.	.	.	.	.	4a\	4cc\
.	.	.	.	.	16d/	.	16d/	.	.	.	.	.	.	.	.	.	.	.
8D\	.	.	8f#\	.	16d/	.	16d/	.	.	.	.	.	.	.	.	.	.	.
.	.	.	.	.	16d/JJ	.	16d/JJ	.	.	.	.	.	.	.	.	.	.	.
8D\	.	.	8f#\	.	16d/LL	.	16d/LL	.	4d\	in	4f#\	in	4a\	in	4cc\	in	4a\	4cc\
.	.	.	.	.	16d/	.	16d/	.	.	.	.	.	.	.	.	.	.	.
8D\J	.	.	8f#\J	.	16d/	.	16d/	.	.	.	.	.	.	.	.	.	.	.
.	.	.	.	.	16d/JJ	.	16d/JJ	.	.	.	.	.	.	.	.	.	.	.
!	!	!	!	!	!	!	!LO:LB:g=original	!	!	!	!	!	!	!	!	!	!	!
=30	=30	=30	=30	=30	=30	=30	=30	=30	=30	=30	=30	=30	=30	=30	=30	=30	=30	=30
8D\L	.	7	8d\L	.	16d/LL	.	16f#/LL	.	4.d\	ſae-	4.f#\	ſae-	4.a\	ſae-	4.cc\	ſae-	2.a\	2.cc\
.	.	.	.	.	16A/	.	16d/	.	.	.	.	.	.	.	.	.	.	.
8D\	.	.	8d\	.	16f#/	.	16a/	.	.	.	.	.	.	.	.	.	.	.
.	.	.	.	.	16d/JJ	.	16f#/JJ	.	.	.	.	.	.	.	.	.	.	.
8D\	.	.	8d\	.	16a/LL	.	16cc\LL	.	.	.	.	.	.	.	.	.	.	.
.	.	.	.	.	16f#/	.	16a\	.	.	.	.	.	.	.	.	.	.	.
8D\	.	.	8d\	.	16cc/	.	16ff#\	.	8d\	-cu-	8f#\	-cu-	8a\	-cu-	8cc\	-cu-	.	.
.	.	.	.	.	16a/JJ	.	16cc\JJ	.	.	.	.	.	.	.	.	.	.	.
!	!	!	!	!	!	!	!	!	!	!	!	!	!	!	!	!	!	!
8D\	.	.	8d\	.	16ff#|\LL	.	16aa\LL	.	4d\	-la	4f#\	-la	4a\	-la	4cc\	-la	.	.
.	.	.	.	.	(16a\	.	(16cc\	.	.	.	.	.	.	.	.	.	.	.
8D\J	.	.	8d\J	.	16g\	.	16b\	.	.	.	.	.	.	.	.	.	.	.
.	.	.	.	.	16f#\JJ)	.	16a\JJ)	.	.	.	.	.	.	.	.	.	.	.
=31	=31	=31	=31	=31	=31	=31	=31	=31	=31	=31	=31	=31	=31	=31	=31	=31	=31	=31
!	!	!	!	!	!	!	!	!	!	!	!LO:TX:a:i:t=d	!	!	!	!	!	!	!
8D\L	.	6 4	8d\L	.	16g/LL	.	16b/LL	.	2G\	ſae-	2d\	ſae-	2g\	ſae-	2b\	ſae-	4g\	4b\
.	.	.	.	.	16d/	.	16d/	.	.	.	.	.	.	.	.	.	.	.
8D\	.	.	8d\	.	16d/	.	16d/	.	.	.	.	.	.	.	.	.	.	.
.	.	.	.	.	16d/JJ	.	16d/JJ	.	.	.	.	.	.	.	.	.	.	.
8D\	.	.	8d\	.	16d/LL	.	16d/LL	.	.	.	.	.	.	.	.	.	4g\	4b\
.	.	.	.	.	16d/	.	16d/	.	.	.	.	.	.	.	.	.	.	.
8D\	.	.	8d\	.	16d/	.	16d/	.	.	.	.	.	.	.	.	.	.	.
.	.	.	.	.	16d/JJ	.	16d/JJ	.	.	.	.	.	.	.	.	.	.	.
!	!	!	!	!	!	!	!	!	!	!	!LO:TX:a:i:t=d	!	!	!	!	!	!	!
8D\	.	.	8d\	.	16d/LL	.	16d/LL	.	4G\	-cu-	4d\	-cu-	4g\	-cu-	4b\	-cu-	4g\	4b\
.	.	.	.	.	16d/	.	16d/	.	.	.	.	.	.	.	.	.	.	.
8D\J	.	.	8d\J	.	16d/	.	16d/	.	.	.	.	.	.	.	.	.	.	.
.	.	.	.	.	16d/JJ	.	16d/JJ	.	.	.	.	.	.	.	.	.	.	.
!	!	!	!	!	!	!	!	!	!	!	!LO:LB:g=original	!	!	!	!	!	!	!
=32	=32	=32	=32	=32	=32	=32	=32	=32	=32	=32	=32	=32	=32	=32	=32	=32	=32	=32
8D\L	.	6 4	8d\L	.	16d/LL	.	16g/LL	.	2G\	-lo-	2d\	-lo-	2g\	-lo-	2b\	-lo-	2.g\	2.b\
.	.	.	.	.	16B/	.	16d/	.	.	.	.	.	.	.	.	.	.	.
8D\	.	.	8d\	.	16g/	.	16b/	.	.	.	.	.	.	.	.	.	.	.
.	.	.	.	.	16d/JJ	.	16g/JJ	.	.	.	.	.	.	.	.	.	.	.
8D\	.	.	8d\	.	16b/LL	.	16dd\LL	.	.	.	.	.	.	.	.	.	.	.
.	.	.	.	.	16g/	.	16b\	.	.	.	.	.	.	.	.	.	.	.
8D\	.	.	8d\	.	16dd/	.	16gg\	.	.	.	.	.	.	.	.	.	.	.
.	.	.	.	.	16b/JJ	.	16dd\JJ	.	.	.	.	.	.	.	.	.	.	.
!	!	!	!	!	!LO:LB:g=original	!	!	!	!	!	!	!	!	!	!	!	!	!
8D\	.	.	8d\	.	16gg|\LL	.	16bb\LL	.	4G\	-rum	4d\	-rum	4g\	-rum	4b\	-rum	.	.
.	.	.	.	.	(16b\	.	(16dd\	.	.	.	.	.	.	.	.	.	.	.
8D\J	.	.	8d\J	.	16a\	.	16cc\	.	.	.	.	.	.	.	.	.	.	.
.	.	.	.	.	16g\JJ)	.	16b\JJ)	.	.	.	.	.	.	.	.	.	.	.
=33	=33	=33	=33	=33	=33	=33	=33	=33	=33	=33	=33	=33	=33	=33	=33	=33	=33	=33
8D\L	.	8 6	8d\L	.	16d/ 16b 16gg	.	16d/ 16dd 16bb	.	2D/	et	2d\	et	2b\	et	2dd\	et	4b\	4dd\
.	.	.	.	.	16d/LL	.	16d/LL	.	.	.	.	.	.	.	.	.	.	.
8D\	.	.	8d\	.	16d/	.	16d/	.	.	.	.	.	.	.	.	.	.	.
.	.	.	.	.	16d/JJ	.	16d/JJ	.	.	.	.	.	.	.	.	.	.	.
8D\	.	.	8d\	.	16d/LL	.	16d/LL	.	.	.	.	.	.	.	.	.	4b\	4dd\
.	.	.	.	.	16d/	.	16d/	.	.	.	.	.	.	.	.	.	.	.
8D\	.	.	8d\	.	16d/	.	16d/	.	.	.	.	.	.	.	.	.	.	.
.	.	.	.	.	16d/JJ	.	16d/JJ	.	.	.	.	.	.	.	.	.	.	.
8D\	.	.	8d\	.	16d/LL	.	16d/LL	.	4D/	in	4d\	in	4b\	in	4dd\	in	4b\	4dd\
.	.	.	.	.	16d/	.	16d/	.	.	.	.	.	.	.	.	.	.	.
8D\J	.	.	8d\J	.	16d/	.	16d/	.	.	.	.	.	.	.	.	.	.	.
.	.	.	.	.	16d/JJ	.	16d/JJ	.	.	.	.	.	.	.	.	.	.	.
!	!	!	!	!	!	!	!LO:LB:g=original	!	!	!	!	!	!LO:LB:g=original	!	!LO:LB:g=original	!	!	!
=34	=34	=34	=34	=34	=34	=34	=34	=34	=34	=34	=34	=34	=34	=34	=34	=34	=34	=34
8D\L	.	8 6	8d\L	.	16d/LL	.	16g/LL	.	4.D/	ſae-	4.d\	ſae-	4.b\	ſae-	4.dd\	ſae-	2.b\	2.dd\
.	.	.	.	.	16B/	.	16d/	.	.	.	.	.	.	.	.	.	.	.
8D\	.	.	8d\	.	16g/	.	16b/	.	.	.	.	.	.	.	.	.	.	.
.	.	.	.	.	16d/JJ	.	16g/JJ	.	.	.	.	.	.	.	.	.	.	.
8D\	.	.	8d\	.	16b/LL	.	16dd\LL	.	.	.	.	.	.	.	.	.	.	.
.	.	.	.	.	16g/	.	16b\	.	.	.	.	.	.	.	.	.	.	.
8D\	.	.	8d\	.	16dd/	.	16gg\	.	8D/	-cu-	8d\	-cu-	8b\	-cu-	8dd\	-cu-	.	.
.	.	.	.	.	16b/JJ	.	16dd\JJ	.	.	.	.	.	.	.	.	.	.	.
8D\	.	.	8d\	.	16gg|\LL	.	16bb\LL	.	4D/	-la	4d\	-la	4b\	-la	4dd\	-la	.	.
.	.	.	.	.	(16b\	.	(16dd\	.	.	.	.	.	.	.	.	.	.	.
8D\J	.	.	8d\J	.	16a\	.	16cc\	.	.	.	.	.	.	.	.	.	.	.
.	.	.	.	.	16g\JJ)	.	16b\JJ)	.	.	.	.	.	.	.	.	.	.	.
!	!	!	!	!	!	!	!	!	!LO:LB:g=original	!	!	!	!	!	!	!	!LO:LB:g=original	!
=35	=35	=35	=35	=35	=35	=35	=35	=35	=35	=35	=35	=35	=35	=35	=35	=35	=35	=35
8D\L	.	7 5	8f#\L	.	16d/ 16a 16ff#	.	16d/ 16cc 16aa	.	2d\	et	2f#\	et	2a\	et	2cc\	et	4a\	4cc\
.	.	.	.	.	16d/LL	.	16d/LL	.	.	.	.	.	.	.	.	.	.	.
8D\	.	.	8f#\	.	16d/	.	16d/	.	.	.	.	.	.	.	.	.	.	.
.	.	.	.	.	16d/JJ	.	16d/JJ	.	.	.	.	.	.	.	.	.	.	.
8D\	.	.	8f#\	.	16d/LL	.	16d/LL	.	.	.	.	.	.	.	.	.	4a\	4cc\
.	.	.	.	.	16d/	.	16d/	.	.	.	.	.	.	.	.	.	.	.
8D\	.	.	8f#\	.	16d/	.	16d/	.	.	.	.	.	.	.	.	.	.	.
.	.	.	.	.	16d/JJ	.	16d/JJ	.	.	.	.	.	.	.	.	.	.	.
8D\	.	.	8f#\	.	16d/LL	.	16d/LL	.	4d\	in	4f#\	in	4a\	in	4cc\	in	4a\	4cc\
.	.	.	.	.	16d/	.	16d/	.	.	.	.	.	.	.	.	.	.	.
8D\J	.	.	8f#\J	.	16d/	.	16d/	.	.	.	.	.	.	.	.	.	.	.
.	.	.	.	.	16d/JJ	.	16d/JJ	.	.	.	.	.	.	.	.	.	.	.
!LO:LB:g=original	!	!	!	!	!	!	!	!	!	!	!	!	!	!	!	!	!	!LO:LB:g=original
=36	=36	=36	=36	=36	=36	=36	=36	=36	=36	=36	=36	=36	=36	=36	=36	=36	=36	=36
8D\L	.	7 5	8f#\L	.	16d/LL	.	16f#/LL	.	4.d\	ſae-	4.f#\	ſae-	4.a\	ſae-	4.cc\	ſae-	2.a\	2.cc\
.	.	.	.	.	16A/	.	16d/	.	.	.	.	.	.	.	.	.	.	.
8D\	.	.	8f#\	.	16f#/	.	16a/	.	.	.	.	.	.	.	.	.	.	.
.	.	.	.	.	16d/JJ	.	16f#/JJ	.	.	.	.	.	.	.	.	.	.	.
8D\	.	.	8f#\	.	16a/LL	.	16cc\LL	.	.	.	.	.	.	.	.	.	.	.
.	.	.	.	.	16f#/	.	16a\	.	.	.	.	.	.	.	.	.	.	.
8D\	.	.	8f#\	.	16cc/	.	16ff#\	.	8d\	-cu-	8f#\	-cu-	8a\	-cu-	8cc\	-cu-	.	.
.	.	.	.	.	16a/JJ	.	16cc\JJ	.	.	.	.	.	.	.	.	.	.	.
!	!	!	!	!	!LO:LB:g=original	!	!	!	!	!	!	!	!	!	!	!	!	!
8D\	.	.	8f#\	.	16ff#|\LL	.	16aa|\LL	.	4d\	-la	4f#\	-la	4a\	-la	4cc\	-la	.	.
.	.	.	.	.	(16a\	.	(16cc\	.	.	.	.	.	.	.	.	.	.	.
8D\J	.	.	8f#\J	.	16g\	.	16b\	.	.	.	.	.	.	.	.	.	.	.
.	.	.	.	.	16f#\JJ)	.	16a\JJ)	.	.	.	.	.	.	.	.	.	.	.
=37	=37	=37	=37	=37	=37	=37	=37	=37	=37	=37	=37	=37	=37	=37	=37	=37	=37	=37
4.G\	.	.	8d/L	.	8g\L	.	8b\L	.	2G\	ſae-	8d\	ſae-	8g\	ſae-	8b\	ſae-	8g\L	8b\L
.	.	.	8c/J	.	(16gg\L	.	(16bb\L	.	.	.	8c\	-cu-	8a\	-cu-	8cc\	-cu-	8a\J	8cc\J
.	.	.	.	.	16aa\JJ)	.	16ccc\JJ)	.	.	.	.	.	.	.	.	.	.	.
.	.	.	4.B/	.	8bb\L	.	8ddd\L	.	.	.	4.B\	-lo-	[2b\	-lo-	[2dd\	-lo-	[2b\	[2dd\
8F#\L	.	.	.	.	8bb\	.	8ddd\	.	.	.	.	.	.	.	.	.	.	.
8G\	.	.	.	.	8bb\	.	8ddd\	.	(8F#\L	-cu-	.	.	.	.	.	.	.	.
8A\J	.	.	8c/	.	[8bb\J	.	[8ddd\J	.	8G\J)	.	(8c\	.	.	.	.	.	.	.
!	!	!	!	!	!	!	!LO:LB:g=original	!	!	!	!	!	!	!	!	!	!	!
=38	=38	=38	=38	=38	=38	=38	=38	=38	=38	=38	=38	=38	=38	=38	=38	=38	=38	=38
8B\L	.	6	8d\L	.	8bb\L]	.	8ddd\L]	.	8B\	-lo-	8d\)	.	8b\]	.	8dd\]	.	8b\L]	8dd\L]
8c\J	.	.	8e\J	.	8aa\J	.	8ccc\J	.	8c\	-rum	8e\	-rum	8a\	-rum	8cc\	-rum	8a\J	8cc\J
4d\	.	6 4	4d\	.	4gg\	.	4bb\	.	(4d\	a-	(4d\	a-	4g\	a-	(4b\	a-	4g\	4b\
4D/	.	5 3	4c\	.	4ff#t\	.	4aaT\	.	4D/)	.	4c\)	.	4f#t\	.	4aT/)	.	4d/	4a\
!	!	!	!LO:LB:g=original	!	!	!	!	!	!	!	!	!	!	!	!	!	!	!
=39	=39	=39	=39	=39	=39	=39	=39	=39	=39	=39	=39	=39	=39	=39	=39	=39	=39	=39
*M2/2	*	*	*M2/2	*	*M2/2	*	*M2/2	*	*M2/2	*	*M2/2	*	*M2/2	*	*M2/2	*	*M2/2	*M2/2
*met(c|)	*	*	*met(c|)	*	*met(c|)	*	*met(c|)	*	*met(c|)	*	*met(c|)	*	*met(c|)	*	*met(c|)	*	*met(c|)	*met(c|)
!	!	!	!	!	!	!	!LO:TX:b:i:t=Amen	!	!	!	!	!	!	!	!	!	!	!
!LO:TX:b:i:t=allegro aſsai	!	!	!LO:TX:b:i:t=Allegro aſsai	!	!LO:TX:b:i:t=Amen aſsai	!	!LO:TX:a:i:t=Allegro aſsai	!	!	!	!	!	!	!	!LO:TX:a:i:t=Alla breve.	!	!LO:TX:b:i:t=presto.	!LO:TX:b:i:t=presto.
2G\	.	.	2B/	.	2gg\	.	2gg\	.	2G\	-men	2B\	-men	2g\	-men	2g/	-men,	2B/	2g\
!	!	!	!	!	!	!	!	!	!LO:TX:b:i:t=allegro aſsai.	!	!LO:LB:g=original	!	!	!	!	!	!	!
!	!	!	!	!	!	!	!	!	!	!	!LO:TX:b:i:t=allo assai	!	!	!	!	!	!	!
2r	.	.	2r	.	2r	.	[2g/	.	2r	.	2r	.	2r	.	2g/	a-	2r	2r
*clefC4	*	*	*	*	*	*	*	*	*	*	*	*	*	*	*	*	*	*
=40	=40	=40	=40	=40	=40	=40	=40	=40	=40	=40	=40	=40	=40	=40	=40	=40	=40	=40
!	!	!	!LO:TX:a:i:t=5.	!	!	!	!	!	!	!	!	!	!	!	!	!	!LO:TX:a:i:t=8.	!LO:TX:a:i:t=8.
2r	.	.	1r	.	2r	.	4g/]	.	1r	.	2r	.	1r	.	4g/	.	1r	1r
.	.	.	.	.	.	.	8a/L	.	.	.	.	.	.	.	8a/L	.	.	.
.	.	.	.	.	.	.	8g/J	.	.	.	.	.	.	.	8g/J	.	.	.
[2A\	.	6	.	.	[>2A/	.	4f#/	.	.	.	[2A/	a-	.	.	4f#/	.	.	.
.	.	.	.	.	.	.	4a\	.	.	.	.	.	.	.	4a\	.	.	.
!	!	!	!	!	!	!	!	!	!	!	!	!	!	!	!LO:LB:g=original	!	!	!
=41	=41	=41	=41	=41	=41	=41	=41	=41	=41	=41	=41	=41	=41	=41	=41	=41	=41	=41
4A\]	.	9	1r	.	4A/]	.	[1b	.	1r	.	4A\]	.	1r	.	[1b	.	1r	1r
8B\L	.	.	.	.	8B/L	.	.	.	.	.	8B\L	.	.	.	.	.	.	.
8A\J	.	.	.	.	8A/J	.	.	.	.	.	8A\J	.	.	.	.	.	.	.
4G/	.	.	.	.	4G/	.	.	.	.	.	4G\	.	.	.	.	.	.	.
4B\	.	.	.	.	4B/	.	.	.	.	.	4B\	.	.	.	.	.	.	.
=42	=42	=42	=42	=42	=42	=42	=42	=42	=42	=42	=42	=42	=42	=42	=42	=42	=42	=42
[1c	.	7:6	1r	.	[>1c	.	4b\]	.	1r	.	[1c	.	1r	.	4b\]	.	1r	1r
.	.	.	.	.	.	.	8cc\L	.	.	.	.	.	.	.	8cc\L	.	.	.
.	.	.	.	.	.	.	8b\J	.	.	.	.	.	.	.	8b\J	.	.	.
.	.	.	.	.	.	.	4a\	.	.	.	.	.	.	.	4a\	.	.	.
.	.	.	.	.	.	.	4cc\	.	.	.	.	.	.	.	4cc\	.	.	.
!	!	!	!	!	!LO:LB:g=original	!	!	!	!	!	!	!	!	!	!	!	!	!
=43	=43	=43	=43	=43	=43	=43	=43	=43	=43	=43	=43	=43	=43	=43	=43	=43	=43	=43
4c\]	.	9	1r	.	4c/]	.	[1dd	.	1r	.	4c\]	.	1r	.	[1dd	.	1r	1r
8d\L	.	.	.	.	8d/L	.	.	.	.	.	8d\L	.	.	.	.	.	.	.
8c\J	.	.	.	.	8c/J	.	.	.	.	.	8c\J	.	.	.	.	.	.	.
4B\	.	6	.	.	4B/	.	.	.	.	.	4B\	.	.	.	.	.	.	.
4d\	.	.	.	.	4d/	.	.	.	.	.	4d\	.	.	.	.	.	.	.
!LO:LB:g=original	!	!	!	!	!	!	!	!	!	!	!	!	!	!	!	!	!	!
=44	=44	=44	=44	=44	=44	=44	=44	=44	=44	=44	=44	=44	=44	=44	=44	=44	=44	=44
2.e\	.	7:6	1r	.	2.e/	.	4dd\]	.	1r	.	2.e\	.	1r	.	4dd\]	.	1r	1r
.	.	.	.	.	.	.	8ee\L	.	.	.	.	.	.	.	8ee\L	.	.	.
.	.	.	.	.	.	.	8dd\J	.	.	.	.	.	.	.	8dd\J	.	.	.
.	.	.	.	.	.	.	4cc\	.	.	.	.	.	.	.	4cc\	.	.	.
4d\	.	6	.	.	4d/	.	4b\	.	.	.	4d\	.	.	.	4b\	.	.	.
=45	=45	=45	=45	=45	=45	=45	=45	=45	=45	=45	=45	=45	=45	=45	=45	=45	=45	=45
4c\	.	6	2r	.	4c/	.	4a/	.	2r	.	4c\	.	1r	.	4a\	.	1r	1r
4B\	.	6	.	.	4B/	.	4g/	.	.	.	4B\	.	.	.	4g/	.	.	.
*clefF4	*	*	*	*	*	*	*	*	*	*	*	*	*	*	*	*	*	*
[>2D/	.	3	2A/	.	2A/	.	2f#t/	.	[2D/	a-	2A\	-men	.	.	2f#/	-men	.	.
!	!	!	!	!	!	!	!LO:LB:g=original	!	!	!	!	!	!	!	!	!	!	!
=46	=46	=46	=46	=46	=46	=46	=46	=46	=46	=46	=46	=46	=46	=46	=46	=46	=46	=46
4D/]	.	4 2	2e\	.	2B/	.	2g/	.	4D\]	.	2e\	a-	2r	.	2g/	a-	1r	1r
8E/L	.	.	.	.	.	.	.	.	8E\L	.	.	.	.	.	.	.	.	.
8D/J	.	.	.	.	.	.	.	.	8D\J	.	.	.	.	.	.	.	.	.
4C#X/	.	6	2A/	.	[2e/	.	2a/	.	4C#X\	.	2A/	-men	[2e\	a-	2a\	-men	.	.
4E\	.	.	.	.	.	.	.	.	4E\	.	.	.	.	.	.	.	.	.
!	!	!	!	!	!	!	!	!	!LO:LB:g=original	!	!	!	!LO:LB:g=original	!	!	!	!	!
=47	=47	=47	=47	=47	=47	=47	=47	=47	=47	=47	=47	=47	=47	=47	=47	=47	=47	=47
[1F#	.	7:6	2r	.	4e/]	.	4a/	.	[1F#	.	2r	.	4e\]	.	1a	a-	1r	1r
.	.	.	.	.	8f#/L	.	2f#/	.	.	.	.	.	8f#\L	.	.	.	.	.
.	.	.	.	.	8e/J	.	.	.	.	.	.	.	8e\J	.	.	.	.	.
.	.	.	[2d\	.	4d/	.	.	.	.	.	[2d\	a-	4d\	.	.	.	.	.
.	.	.	.	.	4f#/	.	4a/	.	.	.	.	.	4f#\	.	.	.	.	.
!	!	!	!	!	!	!	!	!	!	!	!LO:LB:g=original	!	!	!	!	!	!	!
=48	=48	=48	=48	=48	=48	=48	=48	=48	=48	=48	=48	=48	=48	=48	=48	=48	=48	=48
4F#\]	.	4 2	2d\]	.	[1g	.	4b/	.	4F#\]	.	2d\]	.	[1g	.	1b	.	1g	1b
8G\L	.	.	.	.	.	.	2g/	.	8G\L	.	.	.	.	.	.	.	.	.
8F#\J	.	.	.	.	.	.	.	.	8F#\J	.	.	.	.	.	.	.	.	.
4E\	.	.	[2e\	.	.	.	.	.	4E\	.	[2e\	.	.	.	.	.	.	.
4G\	.	.	.	.	.	.	4b/	.	4G\	.	.	.	.	.	.	.	.	.
=49	=49	=49	=49	=49	=49	=49	=49	=49	=49	=49	=49	=49	=49	=49	=49	=49	=49	=49
[1A	.	7:6	2e\]	.	4g/]	.	4cc\	.	[1A	.	2e\]	.	4g\]	.	1cc	-men	1a	1cc
.	.	.	.	.	8a/L	.	2a/	.	.	.	.	.	8a\L	.	.	.	.	.
.	.	.	.	.	8g/J	.	.	.	.	.	.	.	8g\J	.	.	.	.	.
.	.	.	[2f#\	.	4f#/	.	.	.	.	.	[2f#\	.	4f#\	.	.	.	.	.
.	.	.	.	.	4a/	.	4cc\	.	.	.	.	.	4a\	.	.	.	.	.
=50	=50	=50	=50	=50	=50	=50	=50	=50	=50	=50	=50	=50	=50	=50	=50	=50	=50	=50
4A\]	.	4 2	2f#\]	.	[1b	.	4dd\	.	4A\]	.	2f#\]	.	[1b	.	1dd	a-	1b	1dd
8B\L	.	.	.	.	.	.	2b\	.	8B\L	.	.	.	.	.	.	.	.	.
8A\J	.	.	.	.	.	.	.	.	8A\J	.	.	.	.	.	.	.	.	.
4G\	.	.	[2g\	.	.	.	.	.	4G\	.	[2g\	.	.	.	.	.	.	.
4B\	.	.	.	.	.	.	4dd\	.	4B\	.	.	.	.	.	.	.	.	.
!	!	!	!	!	!LO:LB:g=original	!	!	!	!	!	!	!	!	!	!	!	!	!
=51	=51	=51	=51	=51	=51	=51	=51	=51	=51	=51	=51	=51	=51	=51	=51	=51	=51	=51
[1c	.	7:6:5	4g\]	.	4b/]	.	4ee\	.	[1c	.	4g\]	.	4b\]	.	1ee	.	2g\	[1cc
.	.	.	4f#\	.	8cc\L	.	2cc\	.	.	.	4f#\	.	8cc\L	.	.	.	.	.
.	.	.	.	.	8b\J	.	.	.	.	.	.	.	8b\J	.	.	.	.	.
.	.	.	2e\	.	4a\	.	.	.	.	.	2e\	.	4a\	.	.	.	[2a\	.
.	.	.	.	.	4g/	.	4ee\	.	.	.	.	.	4g\	.	.	.	.	.
=52	=52	=52	=52	=52	=52	=52	=52	=52	=52	=52	=52	=52	=52	=52	=52	=52	=52	=52
2c\]	.	4 2	1d	.	8f#/L	.	8a/L	.	2c\]	.	1d	-men	2f#\	.	2a\	.	2a\]	2cc\]
.	.	.	.	.	8d/	.	8f#/	.	.	.	.	.	.	.	.	.	.	.
.	.	.	.	.	8e/	.	8g/	.	.	.	.	.	.	.	.	.	.	.
.	.	.	.	.	8f#/J	.	8a/J	.	.	.	.	.	.	.	.	.	.	.
2B\	.	6	.	.	[>2g/	.	4b/	.	2B\	.	.	.	[2g\	.	2b\	-men	2g\	2b\
.	.	.	.	.	.	.	8a/L	.	.	.	.	.	.	.	.	.	.	.
.	.	.	.	.	.	.	8b/J	.	.	.	.	.	.	.	.	.	.	.
!LO:LB:g=original	!	!	!	!	!	!	!	!	!	!	!	!	!	!	!LO:PB:g=original	!	!	!
=53	=53	=53	=53	=53	=53	=53	=53	=53	=53	=53	=53	=53	=53	=53	=53	=53	=53	=53
2A\	.	7 #	2e\	.	8g/L]	.	2cc#X\	.	2A\	.	2e\	a-	2g\]	.	2cc#X\	a-	2a\	2cc#X\
.	.	.	.	.	8e/	.	.	.	.	.	.	.	.	.	.	.	.	.
.	.	.	.	.	8a/	.	.	.	.	.	.	.	.	.	.	.	.	.
.	.	.	.	.	8g/J	.	.	.	.	.	.	.	.	.	.	.	.	.
2d\	.	.	4d\	.	4f#/	.	[2dd\	.	2d\	-men	4c\	.	2f#\	.	[2dd\	.	2d/	[2dd\
.	.	.	4A/	.	8g/L	.	.	.	.	.	4A/	.	.	.	.	.	.	.
.	.	.	.	.	8f#/J	.	.	.	.	.	.	.	.	.	.	.	.	.
!	!	!	!	!	!	!	!LO:LB:g=original	!	!	!	!	!	!	!	!	!	!LO:LB:g=original	!
=54	=54	=54	=54	=54	=54	=54	=54	=54	=54	=54	=54	=54	=54	=54	=54	=54	=54	=54
!	!	!	!	!	!	!	!	!	!	!	!LO:TX:a:i:t=a	!	!	!	!	!	!	!
2A\	.	4	1A	.	1eT	.	2dd\]	.	(2A\	a-	1A	.	1e	.	2dd\]	.	2.a\	2dd\]
!	!	!	!	!	!	!	!	!	!	!	!	!	!	!	!	!	!	!LO:TX:a:i:t=t.
2AA/	.	#	.	.	.	.	2cc#Xt\	.	2AA/)	.	.	.	.	.	2cc#X\	.	.	2cc#X\
.	.	.	.	.	.	.	.	.	.	.	.	.	.	.	.	.	4a\	.
=55	=55	=55	=55	=55	=55	=55	=55	=55	=55	=55	=55	=55	=55	=55	=55	=55	=55	=55
2D\	.	.	2A/	.	2dd\	.	2dd\	.	2D\	-men	2A\	-men	2f#\	-men	2dd\	-men	2a\	2dd\
2r	.	.	2r	.	[2d/	.	[2d/	.	2r	.	2r	.	[2d\	a-	2r	.	2r	2r
!	!	!	!	!	!	!	!	!	!LO:LB:g=original	!	!	!	!LO:LB:g=original	!	!	!	!	!
=56	=56	=56	=56	=56	=56	=56	=56	=56	=56	=56	=56	=56	=56	=56	=56	=56	=56	=56
!	!	!	!	!	!	!	!	!	!	!	!	!	!	!	!	!	!LO:TX:a:i:t=15.	!LO:TX:a:i:t=15.
2r	.	.	2r	.	4d/]	.	4d/]	.	2r	.	1r	.	4d\]	.	1r	.	1r	1r
.	.	.	.	.	8e/L	.	8e/L	.	.	.	.	.	8e\L	.	.	.	.	.
.	.	.	.	.	8d/J	.	8d/J	.	.	.	.	.	8d\J	.	.	.	.	.
[2E\	.	6\	[2E/	.	4c#X/	.	4c#X/	.	[2E\	a-	.	.	4c#X\	.	.	.	.	.
.	.	.	.	.	4e/	.	4e/	.	.	.	.	.	4e\	.	.	.	.	.
!	!	!	!LO:LB:g=original	!	!LO:LB:g=original	!	!	!	!	!	!	!	!	!	!	!	!	!
=57	=57	=57	=57	=57	=57	=57	=57	=57	=57	=57	=57	=57	=57	=57	=57	=57	=57	=57
4E\]	.	9	4E/]	.	[>1f#	.	[1f#	.	4E\]	.	1r	.	[1f#	.	1r	.	1r	1r
8F#\L	.	.	8F#/L	.	.	.	.	.	8F#\L	.	.	.	.	.	.	.	.	.
8E\J	.	.	8E/J	.	.	.	.	.	8E\J	.	.	.	.	.	.	.	.	.
4D\	.	.	4D/	.	.	.	.	.	4D\	.	.	.	.	.	.	.	.	.
4F#\	.	.	4F#/	.	.	.	.	.	4F#\	.	.	.	.	.	.	.	.	.
=58	=58	=58	=58	=58	=58	=58	=58	=58	=58	=58	=58	=58	=58	=58	=58	=58	=58	=58
[1G	.	7:6	[>1G	.	4f#/]	.	4f#/]	.	[1G	.	1r	.	4f#\]	.	1r	.	1r	1r
.	.	.	.	.	8g/L	.	8g/L	.	.	.	.	.	8g\L	.	.	.	.	.
.	.	.	.	.	8f#/J	.	8f#/J	.	.	.	.	.	8f#\J	.	.	.	.	.
.	.	.	.	.	4e/	.	4e/	.	.	.	.	.	4e\	.	.	.	.	.
.	.	.	.	.	4g/	.	4g/	.	.	.	.	.	4g\	.	.	.	.	.
=59	=59	=59	=59	=59	=59	=59	=59	=59	=59	=59	=59	=59	=59	=59	=59	=59	=59	=59
4G\]	.	9	4G/]	.	[>1a	.	[>1a	.	4G\]	.	1r	.	[1a	.	1r	.	1r	1r
8A\L	.	.	8A/L	.	.	.	.	.	8A\L	.	.	.	.	.	.	.	.	.
8G\J	.	.	8G/J	.	.	.	.	.	8G\J	.	.	.	.	.	.	.	.	.
4F#\	.	6	4F#/	.	.	.	.	.	4F#\	.	.	.	.	.	.	.	.	.
4A\	.	.	4A/	.	.	.	.	.	4A\	.	.	.	.	.	.	.	.	.
=60	=60	=60	=60	=60	=60	=60	=60	=60	=60	=60	=60	=60	=60	=60	=60	=60	=60	=60
2.B\	.	7:6	2.B/	.	4a\]	.	4a/]	.	2.B\	.	1r	.	4a\]	.	1r	.	1r	1r
.	.	.	.	.	8b/L	.	8b/L	.	.	.	.	.	8b\L	.	.	.	.	.
.	.	.	.	.	8a/J	.	8a/J	.	.	.	.	.	8a\J	.	.	.	.	.
.	.	.	.	.	4g/	.	4g/	.	.	.	.	.	4g\	.	.	.	.	.
4A\	.	6 #	4A/	.	4f#/	.	4f#/	.	4A\	.	.	.	4f#\	.	.	.	.	.
=61	=61	=61	=61	=61	=61	=61	=61	=61	=61	=61	=61	=61	=61	=61	=61	=61	=61	=61
4G\	.	6	4G/	.	4e/	.	4e/	.	4G\	.	1r	.	4e\	.	1r	.	1r	1r
*custos:AA	*	*	*	*	*	*	*	*	*	*	*	*	*	*	*	*	*	*
4F#\	.	6	4F#/	.	4d/	.	4d/	.	4F#\	-men	.	.	4d\	.	.	.	.	.
!LO:LB:g=original	!	!	!	!	!	!	!	!	!	!	!	!	!	!	!	!	!	!
[>2AA/	.	#	2E/	.	2c#X/	.	2c#X/	.	[2AA/	a-	.	.	2c#X\	.	.	.	.	.
!	!	!	!	!	!	!	!LO:LB:g=original	!	!	!	!	!	!	!	!	!	!	!
=62	=62	=62	=62	=62	=62	=62	=62	=62	=62	=62	=62	=62	=62	=62	=62	=62	=62	=62
4AA/]	.	4 2	2B/	.	2d/	.	2d/	.	4AA/]	.	1r	.	2d\	.	2r	.	1r	1r
8BB/L	.	.	.	.	.	.	.	.	8BB/L	.	.	.	.	.	.	.	.	.
8AA/J	.	.	.	.	.	.	.	.	8AA/J	.	.	.	.	.	.	.	.	.
4GG#X/	.	6	2r	.	2e/	.	[>2b/	.	4GG#X/	.	.	.	2e\	-men	[2b\	a-	.	.
4BB/	.	.	.	.	.	.	.	.	4BB/	.	.	.	.	.	.	.	.	.
!	!	!	!	!	!	!	!	!	!	!	!LO:LB:g=original	!	!	!	!	!	!	!
=63	=63	=63	=63	=63	=63	=63	=63	=63	=63	=63	=63	=63	=63	=63	=63	=63	=63	=63
[>1C#X	.	7:6	2r	.	4e/	.	4b\]	.	[1C#X	.	2r	.	1e	a-	4b\]	.	1r	1r
.	.	.	.	.	2c#X/	.	8cc#X\L	.	.	.	.	.	.	.	8cc#X\L	.	.	.
.	.	.	.	.	.	.	8b\J	.	.	.	.	.	.	.	8b\J	.	.	.
.	.	.	[2A/	.	.	.	4a\	.	.	.	[>2A/	a-	.	.	4a\	.	.	.
.	.	.	.	.	4e/	.	4cc#X\	.	.	.	.	.	.	.	4cc#X\	.	.	.
=64	=64	=64	=64	=64	=64	=64	=64	=64	=64	=64	=64	=64	=64	=64	=64	=64	=64	=64
4C#/]	.	4 2	2A/]	.	4f#/	.	[1dd	.	4C#/]	.	2A\]	.	1f#	.	[1dd	.	1r	1r
8D/L	.	.	.	.	2d/	.	.	.	8D/L	.	.	.	.	.	.	.	.	.
8Cny/J	.	.	.	.	.	.	.	.	8C#X/J	.	.	.	.	.	.	.	.	.
4BB/	.	.	[2B/	.	.	.	.	.	4BB/	.	[2B\	.	.	.	.	.	.	.
4D/	.	.	.	.	4f#/	.	.	.	4D/	.	.	.	.	.	.	.	.	.
!	!	!	!	!	!LO:LB:g=original	!	!	!	!LO:PB:g=original	!	!	!	!	!	!	!	!	!
=65	=65	=65	=65	=65	=65	=65	=65	=65	=65	=65	=65	=65	=65	=65	=65	=65	=65	=65
[1E	.	7:6\	2B/]	.	4g/	.	4dd\]	.	[1E	.	2B\]	.	1g	.	4dd\]	.	1r	1r
.	.	.	.	.	2e/	.	8ee\L	.	.	.	.	.	.	.	8ee\L	.	.	.
.	.	.	.	.	.	.	8dd\J	.	.	.	.	.	.	.	8dd\J	.	.	.
.	.	.	[>2c#X/	.	.	.	4cc#X\	.	.	.	[2c#X\	.	.	.	4cc#X\	.	.	.
.	.	.	.	.	4g/	.	4ee\	.	.	.	.	.	.	.	4ee\	.	.	.
!	!	!	!	!	!	!	!	!	!	!	!	!	!LO:LB:g=original	!	!	!	!	!
=66	=66	=66	=66	=66	=66	=66	=66	=66	=66	=66	=66	=66	=66	=66	=66	=66	=66	=66
4E\]	.	4 2	2c#/]	.	4a/	.	[1ff#	.	4E\]	.	2c#\]	.	1a	.	[1ff#	.	1r	1r
8F#\L	.	.	.	.	2f#/	.	.	.	8F#\L	.	.	.	.	.	.	.	.	.
8E\J	.	.	.	.	.	.	.	.	8E\J	.	.	.	.	.	.	.	.	.
4D\	.	.	[2d\	.	.	.	.	.	4D\	.	[2d\	.	.	.	.	.	.	.
4F#\	.	.	.	.	4a/	.	.	.	4F#\	.	.	.	.	.	.	.	.	.
=67	=67	=67	=67	=67	=67	=67	=67	=67	=67	=67	=67	=67	=67	=67	=67	=67	=67	=67
[1G	.	7:6:5	4d\]	.	4b/	.	4ff#\]	.	[1G	.	4d\]	.	1b	.	4ff#\]	.	1r	1r
.	.	.	4c#X/	.	2g/	.	8gg\L	.	.	.	4c#X\	.	.	.	8gg\L	.	.	.
.	.	.	.	.	.	.	8ff#\J	.	.	.	.	.	.	.	8ff#\J	.	.	.
.	.	.	2B/	.	.	.	4ee\	.	.	.	2B\	.	.	.	4ee\	.	.	.
.	.	.	.	.	4b/	.	4dd\	.	.	.	.	.	.	.	4dd\	.	.	.
!	!	!	!	!	!	!	!	!	!	!	!	!	!	!	!LO:LB:g=original	!	!	!
=68	=68	=68	=68	=68	=68	=68	=68	=68	=68	=68	=68	=68	=68	=68	=68	=68	=68	=68
2G\]	.	4 2	1A	.	4e/	.	4cc#X\	.	2G\]	.	1A	-men	2e\	.	2cc#X\	.	1r	1r
.	.	.	.	.	8f#/L	.	4a\	.	.	.	.	.	.	.	.	.	.	.
.	.	.	.	.	8e/J	.	.	.	.	.	.	.	.	.	.	.	.	.
2F#\	.	6	.	.	4f#/	.	[2dd\	.	2F#\	.	.	.	2f#\	-men	[2dd\	.	.	.
.	.	.	.	.	4d/	.	.	.	.	.	.	.	.	.	.	.	.	.
!LO:LB:g=original	!	!	!	!	!	!	!	!	!	!	!	!	!	!	!	!	!	!
=69	=69	=69	=69	=69	=69	=69	=69	=69	=69	=69	=69	=69	=69	=69	=69	=69	=69	=69
2E\	.	7 #	2B/	.	2g#X/	.	4dd\]	.	2E\	.	1r	.	2g#X\	a-	2dd\]	.	1r	1r
.	.	.	.	.	.	.	8ee\L	.	.	.	.	.	.	.	.	.	.	.
.	.	.	.	.	.	.	8dd\J	.	.	.	.	.	.	.	.	.	.	.
2A\	.	#	4A/	.	[2a/	.	4cc#X\	.	2A\	.	.	.	[2a\	.	2cc#X\	.	.	.
.	.	.	4e\	.	.	.	4a\	.	.	.	.	.	.	.	.	.	.	.
!	!	!	!	!	!	!	!LO:LB:g=original	!	!	!	!	!	!	!	!	!	!	!
=70	=70	=70	=70	=70	=70	=70	=70	=70	=70	=70	=70	=70	=70	=70	=70	=70	=70	=70
2E\	.	4	2.e\	.	2a/]	.	1bt	.	2E\	.	1r	.	2a\]	.	1b	.	1r	1r
2EE/	.	n	.	.	[>2gn/	.	.	.	2EE/	.	.	.	[2gn\	.	.	.	.	.
.	.	.	4e\	.	.	.	.	.	.	.	.	.	.	.	.	.	.	.
!	!	!	!LO:LB:g=original	!	!	!	!	!	!	!	!	!	!	!	!	!	!	!
=71	=71	=71	=71	=71	=71	=71	=71	=71	=71	=71	=71	=71	=71	=71	=71	=71	=71	=71
2AA/	.	7 #	4e\	.	2g/]	.	8cc#X\L	.	2AA/	-men	1r	.	2g\]	.	2cc#X\	-men	2a\	2cc#X\
.	.	.	.	.	.	.	8a\	.	.	.	.	.	.	.	.	.	.	.
.	.	.	4c#X/	.	.	.	8b\	.	.	.	.	.	.	.	.	.	.	.
.	.	.	.	.	.	.	8cc#X\J	.	.	.	.	.	.	.	.	.	.	.
2D/	.	.	2A/	.	8f#/L	.	[2dd\	.	2D/	a-	.	.	2f#\	.	[2dd\	a-	2d/	[2dd\
.	.	.	.	.	8d/	.	.	.	.	.	.	.	.	.	.	.	.	.
.	.	.	.	.	8e/	.	.	.	.	.	.	.	.	.	.	.	.	.
.	.	.	.	.	8f#/J	.	.	.	.	.	.	.	.	.	.	.	.	.
!	!	!	!	!	!LO:LB:g=original	!	!	!	!	!	!	!	!	!	!	!	!	!
=72	=72	=72	=72	=72	=72	=72	=72	=72	=72	=72	=72	=72	=72	=72	=72	=72	=72	=72
2A\	.	4	2r	.	2.e/	.	2dd\]	.	2A\	.	2r	.	1e	.	2dd\]	.	1a	2dd\]
2AA/	.	#	[>2A/	.	.	.	2cc#Xt\	.	2AA/	.	[>2A/	a-	.	.	2cc#X\	.	.	2cc#X\
.	.	.	.	.	4e/	.	.	.	.	.	.	.	.	.	.	.	.	.
!	!	!	!	!	!	!	!	!	!	!	!	!	!	!	!	!	!	!LO:LB:g=original
=73	=73	=73	=73	=73	=73	=73	=73	=73	=73	=73	=73	=73	=73	=73	=73	=73	=73	=73
2D\	.	.	4A/]	.	2f#/	.	2dd\	.	2D\	-men	4A/]	.	2f#\	-men	2dd\	-men	2a\	2dd\
.	.	.	8B/L	.	.	.	.	.	.	.	8B/L	.	.	.	.	.	.	.
.	.	.	8A/J	.	.	.	.	.	.	.	8A/J	.	.	.	.	.	.	.
[2E\	.	#	4G#X/	.	[2g#X/	.	[2b\	.	[2E\	a-	4G#X/	.	[2g#X\	a-	2b\	a-	2r	2r
.	.	.	4B/	.	.	.	.	.	.	.	4B/	.	.	.	.	.	.	.
!	!	!	!	!	!	!	!	!	!	!	!LO:LB:g=original	!	!	!	!	!	!	!
=74	=74	=74	=74	=74	=74	=74	=74	=74	=74	=74	=74	=74	=74	=74	=74	=74	=74	=74
!	!	!	!	!	!	!	!	!	!	!	!	!	!	!	!	!	!LO:TX:a:i:t=7.	!LO:TX:a:i:t=7.
2E\]	.	n6 5	[1cn	.	2g#/]	.	4b\]	.	2E\]	.	[1cn	.	2g#\]	.	4b\	.	1r	1r
.	.	.	.	.	.	.	8ccn\L	.	.	.	.	.	.	.	8ccn\L	.	.	.
.	.	.	.	.	.	.	8b\J	.	.	.	.	.	.	.	8b\J	.	.	.
[2Fn\	.	5	.	.	[2a/	.	4a\	.	[2Fn\	.	.	.	[2a\	.	4a\	.	.	.
.	.	.	.	.	.	.	4cc\	.	.	.	.	.	.	.	4ccn\	.	.	.
!	!	!	!	!	!	!	!	!	!LO:LB:g=original	!	!	!	!	!	!	!	!	!
=75	=75	=75	=75	=75	=75	=75	=75	=75	=75	=75	=75	=75	=75	=75	=75	=75	=75	=75
2F\]	.	6 5	4c/]	.	2a/]	.	[1dd	.	2F\]	.	4c\]	.	2a\]	.	[1dd	.	1r	1r
.	.	.	8d/L	.	.	.	.	.	.	.	8d\L	.	.	.	.	.	.	.
.	.	.	8c/J	.	.	.	.	.	.	.	8cn\J	.	.	.	.	.	.	.
[2G\	.	5	4B/	.	[2b/	.	.	.	[2G\	.	4B\	.	[2b\	.	.	.	.	.
.	.	.	4d/	.	.	.	.	.	.	.	4d\	.	.	.	.	.	.	.
!	!	!	!	!	!	!	!	!	!	!	!	!	!LO:LB:g=original	!	!	!	!	!
=76	=76	=76	=76	=76	=76	=76	=76	=76	=76	=76	=76	=76	=76	=76	=76	=76	=76	=76
2G\]	.	6 5	[1e	.	2b/]	.	4dd\]	.	2G\]	.	[1e	.	2b\]	.	4dd\]	.	1r	1r
.	.	.	.	.	.	.	8ee\L	.	.	.	.	.	.	.	8ee\L	.	.	.
.	.	.	.	.	.	.	8dd\J	.	.	.	.	.	.	.	8dd\J	.	.	.
[2A\	.	5	.	.	[2cc\	.	4cc\	.	[2A\	.	.	.	2cc\	-men	4cc\	.	.	.
.	.	.	.	.	.	.	4ee\	.	.	.	.	.	.	.	4ee\	.	.	.
=77	=77	=77	=77	=77	=77	=77	=77	=77	=77	=77	=77	=77	=77	=77	=77	=77	=77	=77
*custos:B	*	*	*	*	*	*	*	*	*	*	*	*	*	*	*	*	*	*
2A\]	.	5	4e\]	.	2cc\]	.	[1ffn	.	2A\]	.	4e\]	.	2c/	a-	[1ffn	.	1r	1r
.	.	.	8fn\L	.	.	.	.	.	.	.	8fn\L	.	.	.	.	.	.	.
.	.	.	8e\J	.	.	.	.	.	.	.	8e\J	.	.	.	.	.	.	.
!LO:LB:g=original	!	!	!	!	!	!	!	!	!	!	!	!	!	!	!	!	!	!
[2B\	.	-5	4d\	.	2dd\	.	.	.	[2B\	.	4d\	.	[>2d/	.	.	.	.	.
.	.	.	4fn\	.	.	.	.	.	.	.	4fn\	.	.	.	.	.	.	.
!	!	!	!	!	!	!	!LO:LB:g=original	!	!	!	!	!	!	!	!LO:LB:g=original	!	!	!
=78	=78	=78	=78	=78	=78	=78	=78	=78	=78	=78	=78	=78	=78	=78	=78	=78	=78	=78
2B\]	.	6 5	[1g	.	2d/	.	2ff\]	.	2B\]	.	[1g	.	2d\]	.	2ff\]	.	1r	1r
2c\	.	.	.	.	4e/	.	[2ee\	.	2c\	-men	.	.	4e\	.	[2ee\	.	.	.
.	.	.	.	.	8fn/L	.	.	.	.	.	.	.	8fn\L	.	.	.	.	.
.	.	.	.	.	8g/J	.	.	.	.	.	.	.	8g\J	.	.	.	.	.
=79	=79	=79	=79	=79	=79	=79	=79	=79	=79	=79	=79	=79	=79	=79	=79	=79	=79	=79
[1Fn	.	9:8:7 7:6:5	2g\]	.	2.a/	.	2ee\]	.	[1Fn	a-	2g\]	.	1a	.	2ee\]	.	1r	1r
.	.	.	4fn\	.	.	.	4dd\	.	.	.	4fn\	.	.	.	4dd\	.	.	.
.	.	.	4e\	.	4a/	.	4cc\	.	.	.	4e\	.	.	.	4cc\	.	.	.
!	!	!	!	!	!LO:LB:g=original	!	!	!	!	!	!	!	!	!	!	!	!	!
=80	=80	=80	=80	=80	=80	=80	=80	=80	=80	=80	=80	=80	=80	=80	=80	=80	=80	=80
2F\]	.	4 2	2d\	.	1g	.	4b/	.	2F\]	.	2d\	.	1g	-men	2b\	.	1r	1r
.	.	.	.	.	.	.	4g/	.	.	.	.	.	.	.	.	.	.	.
4E\	.	6	2e\	.	.	.	[2cc\	.	4E\	.	2e\	-men	.	.	[2cc\	.	.	.
4Fn\	.	.	.	.	.	.	.	.	4Fn\	.	.	.	.	.	.	.	.	.
=81	=81	=81	=81	=81	=81	=81	=81	=81	=81	=81	=81	=81	=81	=81	=81	=81	=81	=81
2G\	.	4	2.d\	.	2r	.	2cc\]	.	2G\	.	1d	a-	2r	.	2cc\]	.	2g\	2g\
2GG/	.	3	.	.	[2g/	.	2bt\	.	2GG/	.	.	.	[2g\	a-	2b\	.	4.g\	4.g\
.	.	.	4d\	.	.	.	.	.	.	.	.	.	.	.	.	.	.	.
.	.	.	.	.	.	.	.	.	.	.	.	.	.	.	.	.	8g\	8g\
=82	=82	=82	=82	=82	=82	=82	=82	=82	=82	=82	=82	=82	=82	=82	=82	=82	=82	=82
2C/	.	.	2e\	.	4g/]	.	2cc\	.	2C/	-men	2e\	-men	4g\]	.	2cc\	-men	2g\	2g\
.	.	.	.	.	8a/L	.	.	.	.	.	.	.	8a\L	.	.	.	.	.
.	.	.	.	.	8g/J	.	.	.	.	.	.	.	8g\J	.	.	.	.	.
[2D\	.	#	[2f#X\	.	4f#X/	.	[2a\	.	[2D/	a-	2r	.	4f#X\	.	[2a\	a-	2r	2r
.	.	.	.	.	4a/	.	.	.	.	.	.	.	4a\	.	.	.	.	.
!	!	!	!	!	!	!	!	!	!	!	!LO:LB:g=original	!	!	!	!	!	!	!
=83	=83	=83	=83	=83	=83	=83	=83	=83	=83	=83	=83	=83	=83	=83	=83	=83	=83	=83
!	!	!	!	!	!	!	!	!	!	!	!	!	!	!	!	!	!LO:TX:a:i:t=1.	!LO:TX:a:i:t=1.
2D\]	.	6 5	2f#\]	.	[1b	.	4a\]	.	2D/]	.	1r	.	[1b	.	4a\]	.	1r	1r
.	.	.	.	.	.	.	8b/L	.	.	.	.	.	.	.	8b\L	.	.	.
.	.	.	.	.	.	.	8a/J	.	.	.	.	.	.	.	8a\J	.	.	.
[2E\	.	5	[2g\	.	.	.	4g/	.	[2E\	.	.	.	.	.	4g/	.	.	.
.	.	.	.	.	.	.	4b/	.	.	.	.	.	.	.	4b\	.	.	.
=84	=84	=84	=84	=84	=84	=84	=84	=84	=84	=84	=84	=84	=84	=84	=84	=84	=84	=84
2E\]	.	6 5	2g\]	.	4b/]	.	[1cc	.	2E\]	.	1r	.	4b\]	.	[1cc	.	2r	2r
.	.	.	.	.	8a/L	.	.	.	.	.	.	.	8a\L	.	.	.	.	.
.	.	.	.	.	8g/J	.	.	.	.	.	.	.	8g\J	.	.	.	.	.
*custos:G	*	*	*	*	*	*	*	*	*	*	*	*	*	*	*	*	*	*
2F#X\	.	5	2d\	.	[2a/	.	.	.	2F#X\	.	.	.	[2a\	.	.	.	[2a\	[2cc\
!LO:LB:g=original	!	!	!LO:LB:g=original	!	!	!	!	!	!LO:LB:g=original	!	!	!	!LO:LB:g=original	!	!	!	!	!
=85	=85	=85	=85	=85	=85	=85	=85	=85	=85	=85	=85	=85	=85	=85	=85	=85	=85	=85
4G\	.	4 9	1d	.	2a/]	.	2cc\]	.	4G\	.	1r	.	2a\]	.	2cc\]	.	2a\]	2cc\]
4GG/	.	.	.	.	.	.	.	.	4GG/	-men	.	.	.	.	.	.	.	.
[2G\	.	3 8	.	.	2g/	.	2b\	.	[2G\	a-	.	.	2g\	-men	2b\	.	2g\	2b\
!	!	!	!	!	!	!	!LO:LB:g=original	!	!	!	!	!	!	!	!	!	!LO:LB:g=original	!
=86	=86	=86	=86	=86	=86	=86	=86	=86	=86	=86	=86	=86	=86	=86	=86	=86	=86	=86
4G\]	.	4 2	2r	.	2r	.	1a	.	4G\]	.	2r	.	2r	.	1a	-men	2f#/	2a\
8A\L	.	.	.	.	.	.	.	.	8A\L	.	.	.	.	.	.	.	.	.
8G\J	.	.	.	.	.	.	.	.	8G\J	.	.	.	.	.	.	.	.	.
4F#\	.	6	[2A/	.	[2f#/	.	.	.	4F#\	.	[>2A/	a-	[2f#\	a-	.	.	2r	2r
[4A\	.	.	.	.	.	.	.	.	4A\	.	.	.	.	.	.	.	.	.
=87	=87	=87	=87	=87	=87	=87	=87	=87	=87	=87	=87	=87	=87	=87	=87	=87	=87	=87
!	!	!	!	!	!	!	!	!	!LO:TX:t=P:problem=fragment pod całą nutą starty	!	!	!	!	!	!	!	!	!
4A\]	.	4 2	4A/]	.	2f#/]	.	4dd\	.	1B	.	4A/]	.	2f#\]	.	1dd	a-	2r	2r
8B\L	.	.	8B/L	.	.	.	2b\	.	.	.	8B/L	.	.	.	.	.	.	.
8A\J	.	.	8A/J	.	.	.	.	.	.	.	8A/J	.	.	.	.	.	.	.
4G\	.	.	4G/	.	[2g/	.	.	.	.	.	4G/	.	[2g\	.	.	.	2g\	2b\
[4B\	.	.	4B/	.	.	.	4dd\	.	.	.	4B\	.	.	.	.	.	.	.
!	!	!	!	!	!LO:LB:g=original	!	!	!	!	!	!	!	!	!	!LO:LB:g=original	!	!	!
=88	=88	=88	=88	=88	=88	=88	=88	=88	=88	=88	=88	=88	=88	=88	=88	=88	=88	=88
4B\]	.	4 2	[<1c	.	2g/]	.	4ee\	.	4B\	.	[1c	.	2g\]	.	1ee	.	2r	2r
8c\L	.	.	.	.	.	.	2cc\	.	8c\L	.	.	.	.	.	.	.	.	.
8B\J	.	.	.	.	.	.	.	.	8B\J	.	.	.	.	.	.	.	.	.
4A\	.	.	.	.	[2a/	.	.	.	4A\	.	.	.	[2a\	.	.	.	2a\	2cc\
[4c\	.	.	.	.	.	.	4ee\	.	4c\	.	.	.	.	.	.	.	.	.
=89	=89	=89	=89	=89	=89	=89	=89	=89	=89	=89	=89	=89	=89	=89	=89	=89	=89	=89
!	!	!	!	!	!	!	!	!	!LO:TX:t=P:problem=fragment pod całą nutą starty	!	!	!	!	!	!	!	!	!
4c\]	.	4 2	4c/]	.	2a/]	.	4ff#\	.	1d	.	4c\]	.	2a\]	.	1ff#	.	2r	2r
8d\L	.	.	8d/L	.	.	.	2dd\	.	.	.	8d\L	.	.	.	.	.	.	.
8c\J	.	.	8c/J	.	.	.	.	.	.	.	8c\J	.	.	.	.	.	.	.
4B\	.	.	4B/	.	[2b/	.	.	.	.	.	4B\	.	[2b\	.	.	.	[2b\	[2dd\
[4d\	.	.	4d/	.	.	.	4ff#\	.	.	.	4d\	.	.	.	.	.	.	.
=90	=90	=90	=90	=90	=90	=90	=90	=90	=90	=90	=90	=90	=90	=90	=90	=90	=90	=90
!	!	!	!	!	!	!	!	!	!LO:TX:t=P:problem=fragment pod półnutą starty	!	!	!	!	!	!	!	!	!
4d\]	.	4 2	[1e	.	2b/]	.	2gg\	.	2d\	.	[1e	.	2b\]	.	2gg\	-men	2b\]	2dd\]
8e\L	.	.	.	.	.	.	.	.	.	.	.	.	.	.	.	.	.	.
8d\J	.	.	.	.	.	.	.	.	.	.	.	.	.	.	.	.	.	.
4c\	.	6	.	.	[2cc\	.	[2aa\	.	4c\	.	.	.	[2cc\	-men	[2aa\	a-	2cc\	2ee\
4B\	.	.	.	.	.	.	.	.	4B\	.	.	.	.	.	.	.	.	.
=91	=91	=91	=91	=91	=91	=91	=91	=91	=91	=91	=91	=91	=91	=91	=91	=91	=91	=91
!	!	!	!	!	!	!	!	!	!	!	!LO:TX:a:i:t=e	!	!	!	!	!	!	!
2A\	.	.	2e\]	.	2cc\]	.	2aa\]	.	2A\	.	2e\]	.	2cc\]	.	2aa\]	.	2a\	2cc\
4G\	.	.	2f#\	.	4b/	.	2dd\	.	4G\	.	2f#\	.	4b\	a-	2dd\	-men	4g\	4b\
4F#\	.	6	.	.	4a/	.	.	.	4F#\	.	.	.	4a\	.	.	.	4d/	4a\
!LO:LB:g=original	!	!	!	!	!	!	!	!	!LO:LB:g=original	!	!	!	!	!	!	!	!	!
=92	=92	=92	=92	=92	=92	=92	=92	=92	=92	=92	=92	=92	=92	=92	=92	=92	=92	=92
1E	.	7:6\	2.g\	.	2b/	.	1r	.	1E	.	2.g\	.	2b\	-men	1r	.	2g\	2b\
.	.	.	.	.	[2g/	.	.	.	.	.	.	.	[2g\	a-	.	.	2a\	2cc#X\
.	.	.	4G/	.	.	.	.	.	.	.	4G/	-men	.	.	.	.	.	.
!	!	!	!	!	!	!	!	!	!	!	!LO:LB:g=original	!	!	!	!	!	!	!
=93	=93	=93	=93	=93	=93	=93	=93	=93	=93	=93	=93	=93	=93	=93	=93	=93	=93	=93
[1D	.	.	2A/	.	4g/]	.	2r	.	[1D	-men	2A\	a-	4g\]	.	2r	.	2a\	2dd\
.	.	.	.	.	8a/L	.	.	.	.	.	.	.	8a\L	.	.	.	.	.
.	.	.	.	.	8g/J	.	.	.	.	.	.	.	8g\J	.	.	.	.	.
*	*	*	*	*	*	*	*custos:a	*	*	*	*	*	*	*	*	*	*	*
.	.	.	[2d\	.	4f#/	.	[2a/	.	.	.	[2d\	.	4f#\	.	[2a\	a-	2r	2r
.	.	.	.	.	4a\	.	.	.	.	.	.	.	4a\	.	.	.	.	.
!	!	!	!	!	!	!	!LO:PB:g=original	!	!	!	!	!	!LO:PB:g=original	!	!	!	!	!
=94	=94	=94	=94	=94	=94	=94	=94	=94	=94	=94	=94	=94	=94	=94	=94	=94	=94	=94
!LO:TX:b:i:t=Tasto soli.	!	!	!	!	!	!	!	!	!	!	!	!	!	!	!	!	!LO:TX:a:i:t=4.	!LO:TX:a:i:t=4.
1D_	.	.	4d/]	.	[<1b	.	4a/]	.	1D_	a-	4d\]	.	[1b	.	4a\]	.	1r	1r
.	.	.	4c/	.	.	.	8b/L	.	.	.	4c\	.	.	.	8b\L	.	.	.
.	.	.	.	.	.	.	8a/J	.	.	.	.	.	.	.	8a\J	.	.	.
.	.	.	4B/	.	.	.	4g/	.	.	.	4B\	.	.	.	4g/	.	.	.
.	.	.	8A/L	.	.	.	4b/	.	.	.	8A/L	.	.	.	4b\	.	.	.
.	.	.	8G/J	.	.	.	.	.	.	.	8G/J	.	.	.	.	.	.	.
=95	=95	=95	=95	=95	=95	=95	=95	=95	=95	=95	=95	=95	=95	=95	=95	=95	=95	=95
1D_	.	.	2.F#/	.	4b/]	.	[1cc	.	1D_	.	2.F#/	.	4b\]	.	[1cc	.	1r	1r
.	.	.	.	.	8cc/L	.	.	.	.	.	.	.	8cc\L	.	.	.	.	.
.	.	.	.	.	8b/J	.	.	.	.	.	.	.	8b\J	.	.	.	.	.
.	.	.	.	.	4a/	.	.	.	.	.	.	.	4a\	.	.	.	.	.
.	.	.	4G/	.	4g/	.	.	.	.	.	4G/	.	4g\	.	.	.	.	.
!	!	!	!	!	!LO:LB:g=original	!	!	!	!	!	!	!	!	!	!	!	!	!
=96	=96	=96	=96	=96	=96	=96	=96	=96	=96	=96	=96	=96	=96	=96	=96	=96	=96	=96
1D_	.	.	2A/	.	2f#/	.	4cc\]	.	1D_	.	2A/	.	2f#\	.	4cc\]	.	1r	1r
.	.	.	.	.	.	.	8dd\L	.	.	.	.	.	.	.	8dd\L	.	.	.
.	.	.	.	.	.	.	8cc\J	.	.	.	.	.	.	.	8cc\J	.	.	.
.	.	.	2D/	.	[>2g/	.	2bt/	.	.	.	2D/	-men	[2g\	.	2b\	.	.	.
=97	=97	=97	=97	=97	=97	=97	=97	=97	=97	=97	=97	=97	=97	=97	=97	=97	=97	=97
1D_	.	.	2r	.	2g/]	.	2a/	.	1D_	.	2r	.	2g\]	.	1a	-men	1r	1r
.	.	.	[>2A/	.	4f#/	.	2dd\	.	.	.	[2A\	a-	4f#\	.	.	.	.	.
.	.	.	.	.	4e/	.	.	.	.	.	.	.	4e\	.	.	.	.	.
!	!	!	!	!	!	!	!	!	!	!	!	!	!	!	!LO:LB:g=original	!	!	!
=98	=98	=98	=98	=98	=98	=98	=98	=98	=98	=98	=98	=98	=98	=98	=98	=98	=98	=98
2D\]	.	.	4A/]	.	2f#/	.	2r	.	2D\]	-men	4A\]	.	2f#\	.	2r	.	2r	2r
.	.	.	8B/L	.	.	.	.	.	.	.	8B\L	.	.	.	.	.	.	.
.	.	.	8A/J	.	.	.	.	.	.	.	8A\J	.	.	.	.	.	.	.
[2E\	.	.	4G/	.	[2g/	.	[>2b/	.	[2E\	a-	4G\	.	[2g\	.	[2b\	a-	[2g\	[2b\
.	.	.	4B/	.	.	.	.	.	.	.	4B\	.	.	.	.	.	.	.
=99	=99	=99	=99	=99	=99	=99	=99	=99	=99	=99	=99	=99	=99	=99	=99	=99	=99	=99
2E\]	.	6 5	[1c	.	2g/]	.	4b/]	.	2E\]	.	[1c	.	2g\]	.	4b\]	.	2g\]	4b\]
.	.	.	.	.	.	.	8cc\L	.	.	.	.	.	.	.	8cc\L	.	.	8cc\L
.	.	.	.	.	.	.	8b\J	.	.	.	.	.	.	.	8b\J	.	.	8b\J
[2F#\	.	4	.	.	[>2a/	.	4a\	.	[2F#\	.	.	.	[2a\	.	4a\	.	[2a\	4a\
.	.	.	.	.	.	.	4cc\	.	.	.	.	.	.	.	4cc\	.	.	4cc\
=100	=100	=100	=100	=100	=100	=100	=100	=100	=100	=100	=100	=100	=100	=100	=100	=100	=100	=100
2F#\]	.	6 5	4c/]	.	2a/]	.	[1dd	.	2F#\]	.	4c\]	.	2a\]	.	[1dd	.	2a\]	[1dd
.	.	.	8d/L	.	.	.	.	.	.	.	8d\L	.	.	.	.	.	.	.
.	.	.	8c/J	.	.	.	.	.	.	.	8c\J	.	.	.	.	.	.	.
2G\	.	.	4B/	.	4b/	.	.	.	2G\	-men	4B\	.	4b\	.	.	.	4b\	.
.	.	.	4d/	.	4a/	.	.	.	.	.	4d\	.	4a\	.	.	.	4a\	.
!	!	!	!	!	!	!	!LO:LB:g=original	!	!	!	!LO:LB:g=original	!	!	!	!	!	!	!
=101	=101	=101	=101	=101	=101	=101	=101	=101	=101	=101	=101	=101	=101	=101	=101	=101	=101	=101
1c	.	9	[1e	.	[1g	.	4dd\]	.	1c	a-	[1e	.	[1g	.	2dd\]	.	[1g	2dd\]
.	.	.	.	.	.	.	8ee\L	.	.	.	.	.	.	.	.	.	.	.
.	.	.	.	.	.	.	8dd\J	.	.	.	.	.	.	.	.	.	.	.
.	.	.	.	.	.	.	4cc\	.	.	.	.	.	.	.	4cc\	.	.	4cc\
.	.	.	.	.	.	.	4b\	.	.	.	.	.	.	.	4b\	.	.	4b\
!	!	!	!	!	!	!	!	!	!LO:LB:g=original	!	!	!	!	!	!	!	!LO:LB:g=original	!LO:LB:g=original
=102	=102	=102	=102	=102	=102	=102	=102	=102	=102	=102	=102	=102	=102	=102	=102	=102	=102	=102
*custos:G	*	*	*	*	*	*	*	*	*	*	*	*	*	*	*	*	*	*
1C	.	8	2e\]	.	1g]	.	1cc	.	1C	.	2e\]	.	1g]	.	1cc	.	1g_	1cc
.	.	.	4d\	.	.	.	.	.	.	.	4d\	.	.	.	.	.	.	.
.	.	.	4c\	.	.	.	.	.	.	.	4c\	.	.	.	.	.	.	.
!LO:LB:g=original	!	!	!LO:LB:g=original	!	!	!	!	!	!	!	!	!	!LO:LB:g=original	!	!	!	!	!
=103	=103	=103	=103	=103	=103	=103	=103	=103	=103	=103	=103	=103	=103	=103	=103	=103	=103	=103
!	!	!	!	!	!	!	!	!LO:DY:b:t=pia&colon;	!	!	!	!	!	!	!	!	!	!
4G\	.	.	4d\	.	4g/	.	4b/	p	1GG	-men	1d	-men	1g	-men	1b	-men	2g\]	2b\
!LO:TX:b:i:t=Solo.	!	!	!	!	!	!	!	!	!	!	!	!	!	!	!	!	!	!
4GG/	.	.	4G/	.	4G/	.	4G/	.	.	.	.	.	.	.	.	.	.	.
!	!	!	!	!LO:DY:b:t=pia&colon;	!	!LO:DY:b:t=pia&colon;	!	!	!	!	!	!	!	!	!	!	!LO:TX:b:i:t=solo.	!
4BB/	.	6	4B/	p	4B/	p	4B/	.	.	.	.	.	.	.	.	.	[2g\	2r
4GG/	.	.	4G/	.	4G/	.	4G/	.	.	.	.	.	.	.	.	.	.	.
!	!	!	!	!	!LO:LB:g=original	!	!	!	!	!	!	!	!	!	!	!	!	!
=104	=104	=104	=104	=104	=104	=104	=104	=104	=104	=104	=104	=104	=104	=104	=104	=104	=104	=104
!	!	!	!	!	!	!	!	!	!	!	!	!	!	!	!LO:TX:a:i:t=7.	!	!	!LO:TX:b:i:t=solo.
4d\	.	4	4r	.	4r	.	4r	.	1r	.	1r	.	1r	.	1r	.	4g\]	[1a
4D\	.	.	4d\	.	4d/	.	4d/	.	.	.	.	.	.	.	.	.	8a\L	.
.	.	.	.	.	.	.	.	.	.	.	.	.	.	.	.	.	8g\J	.
4F#\	.	6	4f#\	.	4f#/	.	4f#/	.	.	.	.	.	.	.	.	.	4d/	.
4D\	.	.	4d\	.	4d/	.	4d/	.	.	.	.	.	.	.	.	.	4a\	.
=105	=105	=105	=105	=105	=105	=105	=105	=105	=105	=105	=105	=105	=105	=105	=105	=105	=105	=105
4G\	.	9	4r	.	4r	.	4r	.	1r	.	1r	.	1r	.	1r	.	[1b	4a\]
4GG/	.	.	4G/	.	4G/	.	4G/	.	.	.	.	.	.	.	.	.	.	8b\L
.	.	.	.	.	.	.	.	.	.	.	.	.	.	.	.	.	.	8a\J
4BB/	.	6	4B/	.	4B/	.	4B/	.	.	.	.	.	.	.	.	.	.	4g\
4GG/	.	.	4G/	.	4G/	.	4G/	.	.	.	.	.	.	.	.	.	.	4b\
=106	=106	=106	=106	=106	=106	=106	=106	=106	=106	=106	=106	=106	=106	=106	=106	=106	=106	=106
4A\	.	9	4r	.	4r	.	4r	.	1r	.	1r	.	1r	.	1r	.	4b\]	[1cc
4AA/	.	.	4A/	.	4A/	.	4A/	.	.	.	.	.	.	.	.	.	8cc\L	.
.	.	.	.	.	.	.	.	.	.	.	.	.	.	.	.	.	8b\J	.
4C/	.	6	4c/	.	4c/	.	4c/	.	.	.	.	.	.	.	.	.	4a\	.
4AA/	.	.	4A/	.	4A/	.	4A/	.	.	.	.	.	.	.	.	.	4cc\	.
=107	=107	=107	=107	=107	=107	=107	=107	=107	=107	=107	=107	=107	=107	=107	=107	=107	=107	=107
4B\	.	9	4r	.	4r	.	4r	.	1r	.	1r	.	1r	.	1r	.	[1dd	4cc\]
4BB/	.	.	4B/	.	4B/	.	4B/	.	.	.	.	.	.	.	.	.	.	8dd\L
.	.	.	.	.	.	.	.	.	.	.	.	.	.	.	.	.	.	8cc\J
4D/	.	6	4d/	.	4d/	.	4d/	.	.	.	.	.	.	.	.	.	.	4b\
4BB/	.	.	4B/	.	4B/	.	4B/	.	.	.	.	.	.	.	.	.	.	4dd\
=108	=108	=108	=108	=108	=108	=108	=108	=108	=108	=108	=108	=108	=108	=108	=108	=108	=108	=108
4c\	.	9	4r	.	4r	.	4r	.	1r	.	1r	.	1r	.	1r	.	4dd\]	[1ee
4C/	.	.	4c\	.	4c/	.	4c/	.	.	.	.	.	.	.	.	.	8ee\L	.
.	.	.	.	.	.	.	.	.	.	.	.	.	.	.	.	.	8dd\J	.
4E\	.	6	4e\	.	4e/	.	4e/	.	.	.	.	.	.	.	.	.	4cc\	.
4C/	.	.	4c\	.	4c/	.	4c/	.	.	.	.	.	.	.	.	.	4b\	.
!	!	!	!	!	!	!	!LO:LB:g=original	!	!	!	!	!	!	!	!	!	!	!
=109	=109	=109	=109	=109	=109	=109	=109	=109	=109	=109	=109	=109	=109	=109	=109	=109	=109	=109
4d\	.	9	2d\	.	2d/	.	2d/	.	1r	.	1r	.	1r	.	1r	.	2.a\	4ee\]
4D\	.	.	.	.	.	.	.	.	.	.	.	.	.	.	.	.	.	8ff#\L
.	.	.	.	.	.	.	.	.	.	.	.	.	.	.	.	.	.	8ee\J
4F#\	.	6	2r	.	2r	.	2r	.	.	.	.	.	.	.	.	.	.	4dd\
4D\	.	.	.	.	.	.	.	.	.	.	.	.	.	.	.	.	4a\	4cc\
!LO:LB:g=original	!	!	!	!	!	!	!	!	!	!	!	!	!	!	!	!	!	!
=110	=110	=110	=110	=110	=110	=110	=110	=110	=110	=110	=110	=110	=110	=110	=110	=110	=110	=110
4G\	.	.	2r	.	2r	.	2r	.	1r	.	1r	.	1r	.	1r	.	4g\	4b\
4C/	.	6	.	.	.	.	.	.	.	.	.	.	.	.	.	.	8b\L	8dd\L
.	.	.	.	.	.	.	.	.	.	.	.	.	.	.	.	.	8a\J	8cc\J
4D/	.	6 4	4r	.	4r	.	4r	.	.	.	.	.	.	.	.	.	4g\	4b\
!	!	!	!	!LO:DY:b:t=for	!	!LO:DY:b:t=for	!	!LO:DY:b:t=for	!	!	!	!	!	!	!	!	!	!
4DD/	.	7 3	4dd\	f	4ff#\	f	4aa\	f	.	.	.	.	.	.	.	.	4d/	4a\
!	!	!	!	!	!LO:LB:g=original	!	!	!	!	!	!	!	!	!	!	!	!	!
=111	=111	=111	=111	=111	=111	=111	=111	=111	=111	=111	=111	=111	=111	=111	=111	=111	=111	=111
1GG	.	5:6	1b	.	8gg\L	.	8bb\L	.	1G	a-	1B	a-	1r	.	2r	.	1g	1b
.	.	.	.	.	8aa\	.	8ccc\	.	.	.	.	.	.	.	.	.	.	.
.	.	.	.	.	8gg\	.	8bb\	.	.	.	.	.	.	.	.	.	.	.
.	.	.	.	.	8ff#\J	.	8aa\J	.	.	.	.	.	.	.	.	.	.	.
.	.	.	.	.	8ee\L	.	8gg\L	.	.	.	.	.	.	.	2ee\	a-	.	.
.	.	.	.	.	8dd\	.	8ff#\	.	.	.	.	.	.	.	.	.	.	.
.	.	.	.	.	8cc#X\	.	8ee\	.	.	.	.	.	.	.	.	.	.	.
.	.	.	.	.	8b\J	.	8dd\J	.	.	.	.	.	.	.	.	.	.	.
=112	=112	=112	=112	=112	=112	=112	=112	=112	=112	=112	=112	=112	=112	=112	=112	=112	=112	=112
1G	.	4 2	[1a	.	8cc#X\L	.	8ee\L	.	1G	-men	1A	-men	2r	.	2cc#X\	.	1a	1cc#X
.	.	.	.	.	8a\	.	8cc#X\	.	.	.	.	.	.	.	.	.	.	.
.	.	.	.	.	8g#X\	.	8b\	.	.	.	.	.	.	.	.	.	.	.
.	.	.	.	.	8a\J	.	8cc#\J	.	.	.	.	.	.	.	.	.	.	.
.	.	.	.	.	8b\L	.	8dd\L	.	.	.	.	.	2cc#X\	a-	2a\	-men	.	.
.	.	.	.	.	8cc#\	.	8ee\	.	.	.	.	.	.	.	.	.	.	.
.	.	.	.	.	8dd\	.	8ff#\	.	.	.	.	.	.	.	.	.	.	.
.	.	.	.	.	8ee\J	.	8gg\J	.	.	.	.	.	.	.	.	.	.	.
!	!	!	!	!	!	!	!	!	!	!	!	!	!	!	!	!	!LO:LB:g=original	!
=113	=113	=113	=113	=113	=113	=113	=113	=113	=113	=113	=113	=113	=113	=113	=113	=113	=113	=113
*	*	*	*	*	*	*	*	*	*	*ij	*	*	*	*	*	*	*	*
[1F#	.	6	1a]	.	8ff#\L	.	8aa\L	.	1F#	a-	1A	a-	2dd\	.	2r	.	1a	1dd
.	.	.	.	.	8gg\	.	8bb\	.	.	.	.	.	.	.	.	.	.	.
.	.	.	.	.	8ff#\	.	8aa\	.	.	.	.	.	.	.	.	.	.	.
.	.	.	.	.	8ee\J	.	8gg\J	.	.	.	.	.	.	.	.	.	.	.
.	.	.	.	.	8dd\L	.	8ff#\L	.	.	.	.	.	2a\	-men	2dd\	a-	.	.
.	.	.	.	.	8cc#X\	.	8ee\	.	.	.	.	.	.	.	.	.	.	.
.	.	.	.	.	8b\	.	8dd\	.	.	.	.	.	.	.	.	.	.	.
.	.	.	.	.	8a\J	.	8cc#X\J	.	.	.	.	.	.	.	.	.	.	.
!	!	!	!	!	!	!	!	!	!	!	!	!	!	!	!LO:LB:g=original	!	!	!
=114	=114	=114	=114	=114	=114	=114	=114	=114	=114	=114	=114	=114	=114	=114	=114	=114	=114	=114
1F#]	.	4 2	[1g	.	8b/L	.	8dd\L	.	1F#	-men	1G	-men	2r	.	(2b\	.	1g	1b
*	*	*	*	*	*	*	*	*	*	*Xij	*	*	*	*	*	*	*	*
.	.	.	.	.	8g/	.	8b\	.	.	.	.	.	.	.	.	.	.	.
.	.	.	.	.	8f#/	.	8a\	.	.	.	.	.	.	.	.	.	.	.
.	.	.	.	.	8g/J	.	8b\J	.	.	.	.	.	.	.	.	.	.	.
*	*	*	*	*	*	*	*	*	*	*	*	*	*	*ij	*	*	*	*
.	.	.	.	.	8a\L	.	8cc#X\L	.	.	.	.	.	2b\	a-	2g\)	-men	.	.
.	.	.	.	.	8b\	.	8dd\	.	.	.	.	.	.	.	.	.	.	.
.	.	.	.	.	8cc#X\	.	8ee\	.	.	.	.	.	.	.	.	.	.	.
.	.	.	.	.	8dd\J	.	8ff#\J	.	.	.	.	.	.	.	.	.	.	.
!	!	!	!	!	!	!	!LO:LB:g=original	!	!	!	!	!	!	!	!	!	!	!
=115	=115	=115	=115	=115	=115	=115	=115	=115	=115	=115	=115	=115	=115	=115	=115	=115	=115	=115
*	*	*	*	*	*	*	*	*	*	*ij	*	*	*	*	*	*	*	*
[1E	.	6n	1g]	.	8ee\L	.	8gg\L	.	1E	a-	1G	a-	2ccn\	.	2r	.	1g	1ccn
.	.	.	.	.	8ff#\	.	8aa\	.	.	.	.	.	.	.	.	.	.	.
.	.	.	.	.	8ee\	.	8gg\	.	.	.	.	.	.	.	.	.	.	.
.	.	.	.	.	8dd\J	.	8ff#\J	.	.	.	.	.	.	.	.	.	.	.
*	*	*	*	*	*	*	*	*	*	*	*	*	*	*	*	*ij	*	*
.	.	.	.	.	8ccn/L	.	8ee\L	.	.	.	.	.	2g\	-men	2ccn\	a-	.	.
*	*	*	*	*	*	*	*	*	*	*	*	*	*	*Xij	*	*	*	*
.	.	.	.	.	8b/	.	8dd\	.	.	.	.	.	.	.	.	.	.	.
.	.	.	.	.	8a/	.	8ccn\	.	.	.	.	.	.	.	.	.	.	.
.	.	.	.	.	8g/J	.	8b\J	.	.	.	.	.	.	.	.	.	.	.
=116	=116	=116	=116	=116	=116	=116	=116	=116	=116	=116	=116	=116	=116	=116	=116	=116	=116	=116
1E]	.	4 2	[1f#	.	8a/L	.	8cc\L	.	1E	-men	1F#	-men	2r	.	2a\	.	1a	1a
*	*	*	*	*	*	*	*	*	*	*Xij	*	*	*	*	*	*	*	*
.	.	.	.	.	8f#/	.	8a\	.	.	.	.	.	.	.	.	.	.	.
.	.	.	.	.	8e/	.	8g\	.	.	.	.	.	.	.	.	.	.	.
.	.	.	.	.	8f#/J	.	8a\J	.	.	.	.	.	.	.	.	.	.	.
!	!	!	!	!	!LO:LB:g=original	!	!	!	!	!	!	!	!	!	!	!	!	!
*	*	*	*	*	*	*	*	*	*	*	*	*	*	*ij	*	*	*	*
.	.	.	.	.	8g\L	.	8b\L	.	.	.	.	.	2a\	a-	2f#/	-men	.	.
*	*	*	*	*	*	*	*	*	*	*	*	*	*	*	*	*Xij	*	*
.	.	.	.	.	8a\	.	8cc\	.	.	.	.	.	.	.	.	.	.	.
.	.	.	.	.	8b\	.	8dd\	.	.	.	.	.	.	.	.	.	.	.
.	.	.	.	.	8cc\J	.	8ee\J	.	.	.	.	.	.	.	.	.	.	.
=117	=117	=117	=117	=117	=117	=117	=117	=117	=117	=117	=117	=117	=117	=117	=117	=117	=117	=117
*	*	*	*	*	*	*	*	*	*	*ij	*	*ij	*	*	*	*	*	*
[1D	.	6	1f#]	.	8dd\L	.	8ff#\L	.	1D	a-	1f#	a-	2b\	.	2r	.	1b	1b
.	.	.	.	.	8ee\	.	8gg\	.	.	.	.	.	.	.	.	.	.	.
.	.	.	.	.	8dd\	.	8ff#\	.	.	.	.	.	.	.	.	.	.	.
.	.	.	.	.	8cc\J	.	8ee\J	.	.	.	.	.	.	.	.	.	.	.
*	*	*	*	*	*	*	*	*	*	*	*	*	*	*	*	*ij	*	*
.	.	.	.	.	8b/L	.	8dd\L	.	.	.	.	.	2f#\	-men	2b\	a-	.	.
*	*	*	*	*	*	*	*	*	*	*	*	*	*	*Xij	*	*	*	*
.	.	.	.	.	8a/	.	8cc\	.	.	.	.	.	.	.	.	.	.	.
.	.	.	.	.	8g/	.	8b\	.	.	.	.	.	.	.	.	.	.	.
.	.	.	.	.	8f#/J	.	8a\J	.	.	.	.	.	.	.	.	.	.	.
=118	=118	=118	=118	=118	=118	=118	=118	=118	=118	=118	=118	=118	=118	=118	=118	=118	=118	=118
1D]	.	4 2	[1e	.	8g/L	.	8b/L	.	1D	-men	1e	-men	2r	.	2g/	.	1g	1g
*	*	*	*	*	*	*	*	*	*	*Xij	*	*Xij	*	*	*	*	*	*
.	.	.	.	.	8e/	.	8g/	.	.	.	.	.	.	.	.	.	.	.
.	.	.	.	.	8d/	.	8f#/	.	.	.	.	.	.	.	.	.	.	.
.	.	.	.	.	8e/J	.	8g/J	.	.	.	.	.	.	.	.	.	.	.
.	.	.	.	.	8f#/L	.	8a/L	.	.	.	.	.	2g\	a-	2e/	-men	.	.
*	*	*	*	*	*	*	*	*	*	*	*	*	*	*	*	*Xij	*	*
.	.	.	.	.	8g/	.	8b/	.	.	.	.	.	.	.	.	.	.	.
.	.	.	.	.	8a/	.	8cc/	.	.	.	.	.	.	.	.	.	.	.
.	.	.	.	.	8b/J	.	8dd/J	.	.	.	.	.	.	.	.	.	.	.
=119	=119	=119	=119	=119	=119	=119	=119	=119	=119	=119	=119	=119	=119	=119	=119	=119	=119	=119
[>1C	.	6	1e]	.	8cc\L	.	8ee\L	.	[1C	a-	1e	a-	2a\	.	2r	.	1a	1a
.	.	.	.	.	8dd\	.	8ffn\	.	.	.	.	.	.	.	.	.	.	.
.	.	.	.	.	8cc\	.	8ee\	.	.	.	.	.	.	.	.	.	.	.
.	.	.	.	.	8b\J	.	8dd\J	.	.	.	.	.	.	.	.	.	.	.
.	.	.	.	.	8a/L	.	8cc/L	.	.	.	.	.	2e\	-men	[2a\	a-	.	.
.	.	.	.	.	8g/	.	8b/	.	.	.	.	.	.	.	.	.	.	.
.	.	.	.	.	8f#/	.	8a/	.	.	.	.	.	.	.	.	.	.	.
.	.	.	.	.	8e/J	.	8g/J	.	.	.	.	.	.	.	.	.	.	.
!	!	!	!	!	!	!	!LO:LB:g=original	!	!	!	!	!	!	!	!	!	!	!LO:LB:g=original
=120	=120	=120	=120	=120	=120	=120	=120	=120	=120	=120	=120	=120	=120	=120	=120	=120	=120	=120
*custos:BB	*	*	*	*	*	*	*	*	*	*	*	*	*	*	*	*	*	*
2C/]	.	4 2	2A/	.	2d/	.	4f#|>/	.	2C/]	.	2.d\	.	4f#\	a-	4a\]	.	2d/	2a\
.	.	.	.	.	.	.	4ff#|\	.	.	.	.	.	4d\	.	8b\L	.	.	.
.	.	.	.	.	.	.	.	.	.	.	.	.	.	.	8cc\J	.	.	.
!LO:LB:g=original	!	!	!	!	!	!	!	!	!	!	!	!	!	!	!	!	!	!
4BB/	.	6	4d\	.	[2gg\	.	4gg|\	.	(4BB/	.	.	.	[2g\	.	4dd\	.	[2g\	4b\
4C/	.	.	4e\	.	.	.	4ccc|\	.	4C/)	.	4d\	-men	.	.	4cc\	.	.	4cc\
!	!	!	!	!	!	!	!	!	!LO:LB:g=original	!	!LO:LB:g=original	!	!LO:LB:g=original	!	!	!	!	!
=121	=121	=121	=121	=121	=121	=121	=121	=121	=121	=121	=121	=121	=121	=121	=121	=121	=121	=121
2D\	.	6 4	2d\	.	2gg\]	.	2bb\	.	1D	.	1d	a-	2g\]	.	2b\	.	2g\]	2b\
!	!	!	!	!	!	!	!	!	!	!	!	!	!	!	!	!	!	!LO:TX:a:i:t=t.
2D\	.	5 3	2d\	.	2ff#t\	.	2aaT\	.	.	.	.	.	2f#t\	.	2aT\	.	2d/	2a\
=122	=122	=122	=122	=122	=122	=122	=122	=122	=122	=122	=122	=122	=122	=122	=122	=122	=122	=122
2G\	.	.	2d\	.	2G/ 2d 2b 2gg|>	.	2G/ 2d 2b 2gg|>	.	2G\	-men	2d\	-men	2g\	-men	2g/	-men	4r	4r
.	.	.	.	.	.	.	.	.	.	.	.	.	.	.	.	.	8B/L	8g\L
.	.	.	.	.	.	.	.	.	.	.	.	.	.	.	.	.	8d/J	8a\J
2r	.	.	2r	.	2r	.	2r	.	2r	.	2r	.	2r	.	2r	.	4B/	4g\
.	.	.	.	.	.	.	.	.	.	.	.	.	.	.	.	.	4B/	4g\
=123	=123	=123	=123	=123	=123	=123	=123	=123	=123	=123	=123	=123	=123	=123	=123	=123	=123	=123
2D\	.	.	2d\	.	2d/ 2a 2ff#|>	.	2d/ 2ff# 2aa|>	.	2D\	a-	2d\	a-	2f#\	a-	2a\	a-	4r	4r
.	.	.	.	.	.	.	.	.	.	.	.	.	.	.	.	.	8d/L	8a\L
.	.	.	.	.	.	.	.	.	.	.	.	.	.	.	.	.	8g/J	8b\J
2r	.	.	2r	.	2r	.	2r	.	2r	.	2r	.	2r	.	2r	.	4d/	4a\
.	.	.	.	.	.	.	.	.	.	.	.	.	.	.	.	.	4d/	4a\
!	!	!	!	!	!	!	!	!	!	!	!	!	!	!	!LO:LB:g=original	!	!	!
=124	=124	=124	=124	=124	=124	=124	=124	=124	=124	=124	=124	=124	=124	=124	=124	=124	=124	=124
2G|\	.	.	2d|\	.	2G/ 2d 2b 2gg|>	.	2G/ 2d 2gg 2bb|>	.	2G\	-men	2d|\	-men	2g|\	-men	2b\	-men	2g|\	2b|\
2D|/	.	.	2d|\	.	2d/ 2a 2ff#|>	.	2d/ 2ff# 2aa|>	.	2D/	a-	2F#|>/	a-	2a\	a-	2dd\	a-	2d|/	2a|\
!	!	!	!	!	!	!	!	!	!	!	!	!	!	!	!	!	!LO:LB:g=original	!
=125	=125	=125	=125	=125	=125	=125	=125	=125	=125	=125	=125	=125	=125	=125	=125	=125	=125	=125
!	!	!	!	!	!	!	!	!	!	!	!LO:TX:b:i:t=Fine	!	!LO:TX:b:i:t=Fine	!	!	!	!	!
2GG|/	.	.	2d|\	.	2G/ 2d 2b 2gg|>	.	2G/ 2d 2gg 2bb|>	.	2GG/	-men	2G/	-men	2b|\	-men	2dd\	-men	2B|/	2g|\
!LO:TX:b:i:t=Finis.	!	!	!LO:TX:b:i:t=Fine.	!	!LO:TX:b:i:t=Fine	!	!	!	!LO:TX:b:i:t=Fine	!	!	!	!	!	!LO:TX:b:i:t=Fine	!	!LO:TX:b:i:t=Finis.	!LO:TX:b:i:t=Finis.
2r	.	.	2r	.	2r	.	2r	.	2r	.	2r	.	2r	.	2r	.	2r	2r
==	==	==	==	==	==;	==	==	==	==;	==	==;	==	==;	==	==;	==	==	==
*-	*-	*-	*-	*-	*-	*-	*-	*-	*-	*-	*-	*-	*-	*-	*-	*-	*-	*-
!!!RDF**kern: | = vertical stroke
!!!RDF**kern: < = below
!!!RDF**kern: > = above
!!!system-decoration: s1,s2[(s3)]s4,s5,s6[(s7,s8,s9)]s10
!!!ENC: Anastazja Marusiak
!!!END: 2022-03-28
!!!ENC: Urszula Świątek
!!!END: 2022-03-30
!!!YEC: Copyright 2022 Narodowy Instytut Fryderyka Chopina (https://polishscores.org)
!!!YEM: License CC-BY-4.0 (https://creativecommons.org/licenses/by/4.0)
